!!!!SEGMENT: pl-sa--162-a-iv-12--003_luna-georgius--vesperae-beatus-vir.krn
!!!cenid: 17xx:509
!!!COM: Luna, Georgius
!!!COM-rismID: pe41010079
!!!CDT:
!!!CNT:
!!!OPR: Vesperae
!!!OTL: Beatus vir
!!!OMV: 003
!!!PDT:
!!!AGN: Sacred; Vespers
!!!SMS-siglum: PL-SA
!!!SMS-shelfmark: 162/A IV 12
!!!SMS-shelfwork: 001-003 M
!!!SMS-variant:
!!!SMS-altvar:
!!!NIFC-rismSourceID: 1001070719
!!!NIFC-islandoraID:
!!!URL-pdf-islandora:
!!!URL-scan: https://bc.bdsandomierz.pl/dlibra/publication/1548/edition/1516/content @EN{Scan in the Sandomierz Diocese Digital Library} @PL{Skany w portalu Cyfrowa Biblioteka Diecezjalna w Sandomierzu}
!!!ONB-nifc: UWAGA: części Vesperae: Dixit Dominus, Confitebor, Beatus vir, Laudate pueri, Laudate Dominum, Magnificat
!!!AIN: 2 empty 2 flt 1 tenor 2 tromp 3 violn 1 vox
!!!key:
**kern	**dynam	**kern	**dynam	**kern	**dynam	**kern	**text	**kern	**text	**dynam	**kern	**text	**kern	**kern	**kern	**kern	**kern
*part11	*part11	*part10	*part10	*part9	*part9	*part8	*part8	*part7	*part7	*part7	*part6	*part6	*part5	*part4	*part3	*part2	*part1
*staff11	*	*staff10	*	*staff9	*	*staff8	*staff8	*staff7	*staff7	*	*staff6	*staff6	*staff5	*staff4	*staff3	*staff2	*staff1
*Ivioln	*	*Ivioln	*	*Ivioln	*	*Iempty	*	*Itenor	*	*	*Ivox	*	*Iempty	*Itromp	*Itromp	*Iflt	*Iflt
*I"Violincello	*	*I"Violino Secundo	*	*I"Violino Primo	*	*I"Basſo	*	*I"Tenore	*	*	*I"Canto	*	*I"Clarino Secundo	*I"Tromba Secunda Ex D.	*I"Tromba Prima Ex D	*I"Flauto traverso 2do	*I"Flauto traverso primo
*I'vlc	*	*I'vl 2	*	*I'vl 1	*	*I'B	*	*I'T	*	*	*I'S	*	*I'clno 2	*I'tr 2 in D	*I'tr 1 in D	*I'fl 2	*I'fl 1
*clefF4	*	*clefG2	*	*clefG2	*	*clefF4	*	*clefC4	*	*	*clefC1	*	*clefG2	*clefG2	*clefG2	*clefG2	*clefG2
*	*	*	*	*	*	*	*	*	*	*	*	*	*ITrd-1c-2	*ITrd-1c-2	*ITrd-1c-2	*	*
*k[f#c#]	*	*k[f#c#]	*	*k[f#c#]	*	*k[f#c#]	*	*k[f#c#]	*	*	*k[f#c#]	*	*k[f#c#]	*k[f#c#]	*k[f#c#]	*k[f#c#]	*k[f#c#]
*D:	*	*D:	*	*D:	*	*D:	*	*D:	*	*	*D:	*	*D:	*D:	*D:	*D:	*D:
*M4/4	*	*M4/4	*	*M4/4	*	*M4/4	*	*M4/4	*	*	*M4/4	*	*M4/4	*M4/4	*M4/4	*M4/4	*M4/4
*met(c)	*	*met(c)	*	*met(c)	*	*met(c)	*	*met(c)	*	*	*met(c)	*	*met(c)	*met(c)	*met(c)	*met(c)	*met(c)
=1	=1	=1	=1	=1	=1	=1	=1	=1	=1	=1	=1	=1	=1	=1	=1	=1	=1
!LO:TX:a:t=All(egr)o solo	!	!LO:TX:a:t=All(egr)o	!	!LO:TX:a:t=All(egr)o	!	!	!	!	!	!	!LO:TX:a:t=Solo	!	!LO:TX:t=P:problem=partia  zapisana w metrum 2/4; suma taktów i wartości rytmicznych nie zgadza się z pozostałymi partiami	!LO:TX:a:t=All(egr)o	!LO:TX:a:t=All(egr)o	!	!LO:TX:a:t=Allegro
!	!	!LO:TX:b:t=Beatus	!	!LO:TX:b:t=Beatus	!	!	!	!	!	!	!	!	!	!LO:TX:b:t=Beatus	!LO:TX:b:t=Beatus	!	!
4d\	.	0r	.	0r	.	0r	.	0r	.	.	4ff#\	Be-	1ryy	00r	00r	1ryy	1ryy
4A\	.	.	.	.	.	.	.	.	.	.	16aa\LL	.	.	.	.	.	.
.	.	.	.	.	.	.	.	.	.	.	16gg\JJ	-a-	.	.	.	.	.
.	.	.	.	.	.	.	.	.	.	.	16ff#\LL	-tus	.	.	.	.	.
.	.	.	.	.	.	.	.	.	.	.	16ee\JJ	.	.	.	.	.	.
.	.	.	.	.	.	.	.	.	.	.	8qqee/	.	.	.	.	.	.
8B\L	.	.	.	.	.	.	.	.	.	.	4dd\	vir	.	.	.	.	.
16A\L	.	.	.	.	.	.	.	.	.	.	.	.	.	.	.	.	.
16G\JJ	.	.	.	.	.	.	.	.	.	.	.	.	.	.	.	.	.
8F#\L	.	.	.	.	.	.	.	.	.	.	8r	.	.	.	.	.	.
!	!	!	!	!	!	!	!	!	!	!	!LO:TX:t=P:problem= w źródle przed 8a dodatkowa kreska taktowa	!	!	!	!	!	!
8F#\J	.	.	.	.	.	.	.	.	.	.	8a\	qui	.	.	.	.	.
=2	=2	=2	=2	=2	=2	=2	=2	=2	=2	=2	=2	=2	=2	=2	=2	=2	=2
8E/L	.	.	.	.	.	.	.	.	.	.	8gg\	ti-	1ryy	.	.	1ryy	1ryy
8D/	.	.	.	.	.	.	.	.	.	.	8gg\	-met	.	.	.	.	.
8C#/	.	.	.	.	.	.	.	.	.	.	8gg\	do-	.	.	.	.	.
8AA/J	.	.	.	.	.	.	.	.	.	.	8gg\	-mi-	.	.	.	.	.
4D\	.	.	.	.	.	.	.	.	.	.	4ff#\	-num	.	.	.	.	.
8D\L	.	.	.	.	.	.	.	.	.	.	8aa\	in	.	.	.	.	.
8F#\J	.	.	.	.	.	.	.	.	.	.	8ccn\	man-	.	.	.	.	.
=3	=3	=3	=3	=3	=3	=3	=3	=3	=3	=3	=3	=3	=3	=3	=3	=3	=3
4G\	.	1r	.	1r	.	1r	.	1r	.	.	8b\	-da-	1ryy	.	.	1ryy	1ryy
.	.	.	.	.	.	.	.	.	.	.	8b\	-tis	.	.	.	.	.
8r	.	.	.	.	.	.	.	.	.	.	8ee\	e-	.	.	.	.	.
8G\	.	.	.	.	.	.	.	.	.	.	8dd\	-ius	.	.	.	.	.
!LO:TX:a:t=P:problem=mixed beam	!	!	!	!	!	!	!	!	!	!	!	!	!	!	!	!	!
8A\L	.	.	.	.	.	.	.	.	.	.	8cc#\	vo-	.	.	.	.	.
8AA/	.	.	.	.	.	.	.	.	.	.	8cc#\	-let	.	.	.	.	.
8BB/	.	.	.	.	.	.	.	.	.	.	8gg\	e-	.	.	.	.	.
8C#/J	.	.	.	.	.	.	.	.	.	.	8ee\	-ius	.	.	.	.	.
!	!	!	!	!	!	!	!	!	!	!	!LO:LB:g=original	!	!	!	!	!	!
=4	=4	=4	=4	=4	=4	=4	=4	=4	=4	=4	=4	=4	=4	=4	=4	=4	=4
*	*	*	*	*	*	*	*	*	*	*	*Xtuplet	*	*	*	*	*	*
!LO:TX:a:t=P:problem=mixed beam	!	!	!	!	!	!	!	!	!	!	!	!	!	!	!	!	!
8D\L	.	2r	.	2r	.	2r	.	2r	.	.	24ff#\LL	vo-	1ryy	.	.	1ryy	1ryy
.	.	.	.	.	.	.	.	.	.	.	24ee\	.	.	.	.	.	.
.	.	.	.	.	.	.	.	.	.	.	24dd\JJ	.	.	.	.	.	.
8G\	.	.	.	.	.	.	.	.	.	.	16ee\LL	-let	.	.	.	.	.
.	.	.	.	.	.	.	.	.	.	.	16b\JJ	.	.	.	.	.	.
8A\	.	.	.	.	.	.	.	.	.	.	4cc#\	ni-	.	.	.	.	.
8AA/J	.	.	.	.	.	.	.	.	.	.	.	.	.	.	.	.	.
!LO:TX:a:t=P:problem=mixed beam	!	!	!	!	!	!	!	!	!	!	!	!	!	!	!	!	!
8D\L	.	4r	.	4r	.	4r	.	4r	.	.	4dd\	-mis	.	.	.	.	.
8AA/J	.	.	.	.	.	.	.	.	.	.	.	.	.	.	.	.	.
!	!LO:DY:t=for	!	!	!	!	!	!	!	!	!	!	!	!	!	!	!	!
!	!LO:DY:a	!	!	!	!	!	!	!	!	!	!	!	!	!	!	!	!
4D\	f	8r	.	8r	.	8r	.	8r	.	.	8r	.	.	.	.	.	.
.	.	8ff#\	.	8ff#\	.	8d\	Po-	8A\	Po-	.	8ff#\	po-	.	.	.	.	.
=5	=5	=5	=5	=5	=5	=5	=5	=5	=5	=5	=5	=5	=5	=5	=5	=5	=5
!	!LO:DY:a	!	!	!	!	!	!	!	!	!	!	!	!	!	!	!	!
4d\	.	4ff# 4a 4d/	.	4ff# 4a 4d/	.	8d\	-tens	8A\	-tens	.	8ff#\	-tens	1ryy	4dd\	4ff#\	1ryy	1ryy
.	.	.	.	.	.	8d\	in	8A\	in	.	8ff#\	in	.	.	.	.	.
4A\	.	16aa\LL	.	16aa\LL	.	4A\	ter-	4c#\	ter-	.	4ee\	ter-	.	4a\	4ee\	.	.
.	.	16gg\	.	16gg\	.	.	.	.	.	.	.	.	.	.	.	.	.
.	.	16ff#\	.	16ff#\	.	.	.	.	.	.	.	.	.	.	.	.	.
.	.	16ee\JJ	.	16ee\JJ	.	.	.	.	.	.	.	.	.	.	.	.	.
.	.	8qqff#/	.	8qqff#/	.	.	.	.	.	.	.	.	.	.	.	.	.
8B\L	.	4ee\	.	4ee\	.	8B\L	.	4d\	-ra	.	4ff#\	-ra	.	4dd\	4ff#\	.	.
16A\L	.	.	.	.	.	16A\L	-ra	.	.	.	.	.	.	.	.	.	.
16G\JJ	.	.	.	.	.	16G\JJ	.	.	.	.	.	.	.	.	.	.	.
8F#\L	.	8r	.	8r	.	8F#\	e-	8r	.	.	8r	.	.	8r	8r	.	.
8F#\J	.	8a\	.	8a/	.	8F#\	-rit	16A\	-e-	.	16ff#\	-e-	.	8dd\	8ff#\	.	.
.	.	.	.	.	.	.	.	16A\	-rit	.	16ff#\	-rit	.	.	.	.	.
=6	=6	=6	=6	=6	=6	=6	=6	=6	=6	=6	=6	=6	=6	=6	=6	=6	=6
8E\L	.	8cc#\L	.	8gg\L	.	8E\	se-	8c#\	se-	.	8gg\	se-	1ryy	8a\L	8ee\L	1ryy	1ryy
8D\	.	8ee\	.	8gg\	.	8D\	-men	8e\	-men	.	8gg\	-men	.	8ee\	8gg\	.	.
8C#\	.	8ee\	.	8gg\	.	8C#/L	.	4e\	e-	.	4gg\	e-	.	8ee\	8gg\	.	.
8AA\J	.	8ee\J	.	8gg\J	.	8AA/J	e-	.	.	.	.	.	.	8ee\J	8gg\J	.	.
4D\	.	4a/	.	4ff#\	.	4D\	-ius	4d\	-ius	.	4ff#\	-ius	.	4dd\	4ff#\	.	.
8D\L	.	8f#/L	.	8aa\L	.	8D\	ge-	8d\	ge-	.	8aa\	ge-	.	8r	8r	.	.
8F#\J	.	8a/J	.	8ccn\J	.	8F#\	-ne-	8d\	-ne-	.	8ccn\	-ne-	.	16dd\LL	16dd\LL	.	.
.	.	.	.	.	.	.	.	.	.	.	.	.	.	16dd\JJ	16dd\JJ	.	.
=7	=7	=7	=7	=7	=7	=7	=7	=7	=7	=7	=7	=7	=7	=7	=7	=7	=7
8G\L	.	8d/L	.	8b\L	.	8G\	-ra-	8d\	-ra-	.	8b\	-ra-	1ryy	4dd\	4dd\	1ryy	1ryy
8G\	.	8d/	.	8b\J	.	8G\	-ti-	8d\	-ti-	.	8b\	-ti-	.	.	.	.	.
8E\	.	8g/	.	(32ee\LLL	.	8E\	-o	8B\	-o	.	8ee\	-o	.	8r	8r	.	.
.	.	.	.	32ff#\	.	.	.	.	.	.	.	.	.	.	.	.	.
.	.	.	.	32gg\	.	.	.	.	.	.	.	.	.	.	.	.	.
.	.	.	.	32aa\JJJ)	.	.	.	.	.	.	.	.	.	.	.	.	.
8G\J	.	8f#/J	.	16bb\LL	.	8G\	re-	8B\	rec-	.	8dd\	re-	.	16ee\LL	16ee\LL	.	.
!	!	!	!	!	!	!	!	!	!	!	!LO:LB:g=original	!	!	!	!	!	!
.	.	.	.	16dd\JJ	.	.	.	.	.	.	.	.	.	16ee\JJ	16ee\JJ	.	.
!LO:TX:a:t=P:problem=mixed beam	!	!	!	!	!	!	!	!	!	!	!	!	!	!	!	!	!
8A\L	.	8e/L	.	8cc#X\L	.	8A\	-cto-	8E/	-to-	.	8cc#\	-cto-	.	8a/L	8ee\L	.	.
!	!	!	!	!	!	!LO:LB:g=original	!	!	!	!	!	!	!	!	!	!	!
8AA/	.	8e/J	.	8cc#\J	.	8A\	-Rum	8E/	-rum	.	8cc#\	-rum	.	8a/J	8ee\J	.	.
8AA/	.	16c#/LL	.	16a\LL	.	4A\	be-	4E/	be-	.	4cc#\	be-	.	4r	4r	.	.
.	.	16e/J	.	16cc#\J	.	.	.	.	.	.	.	.	.	.	.	.	.
8AA/J	.	8eT/J	.	8cc#m\J	.	.	.	.	.	.	.	.	.	.	.	.	.
!	!	!	!	!	!	!	!	!LO:LB:g=original	!	!	!	!	!	!	!	!	!
=8	=8	=8	=8	=8	=8	=8	=8	=8	=8	=8	=8	=8	=8	=8	=8	=8	=8
!	!	!	!	!	!	!	!	!	!	!	!	!	!	!LO:TX:a:t=P:problem=mixed beam	!	!	!
8AA/L	.	(16g/LL	.	16ee\LL	.	8A\	-ne-	16G/LL	-ne-	.	16ee\LL	-ne-	1ryy	8a/L	8ee\L	1ryy	1ryy
.	.	16e/J)	.	16cc#\J	.	.	.	16E/JJ	.	.	16cc#\JJ	.	.	.	.	.	.
8AA/	.	8f#/J	.	8dd\J	.	8A\	-di-	8F#/	-di-	.	8dd\	-di-	.	8dd\J	8dd\J	.	.
8AA/	.	8f#/L	.	16a\LL	.	4A\	-ce-	4F#/	-ce-	.	4dd\	-ce-	.	4r	4r	.	.
.	.	.	.	16dd\J	.	.	.	.	.	.	.	.	.	.	.	.	.
8AA/J	.	8f#/J	.	8ddM\J	.	.	.	.	.	.	.	.	.	.	.	.	.
8AA/L	.	(16dd\LL	.	16ff#\LL	.	8A\	-tur	16d\LL	-tur	.	16ff#\LL	.	.	8dd\L	8ff#\L	.	.
.	.	16b\J)	.	16dd\J	.	.	.	16B\JJ	.	.	16dd\JJ	.	.	.	.	.	.
8AA/	.	8cc#\J	.	8ee\J	.	8A\	.	8c#\	.	.	8ee\	-tur	.	8a\J	8ee\J	.	.
!	!	!LO:TX:a:t=P:problem=mixed beam	!	!	!	!	!	!	!	!	!	!	!	!	!	!	!
8AA/	.	16e/LL	.	16a\LL	.	4A\	be-	4c#\	be-	.	4ee\	be-	.	4r	4r	.	.
.	.	16cc#\J	.	16ee\J	.	.	.	.	.	.	.	.	.	.	.	.	.
8AA/J	.	8cc#t\J	.	8eeM\J	.	.	.	.	.	.	.	.	.	.	.	.	.
!LO:LB:g=original	!	!	!	!	!	!	!	!	!	!	!	!	!	!	!	!	!
=9	=9	=9	=9	=9	=9	=9	=9	=9	=9	=9	=9	=9	=9	=9	=9	=9	=9
8AA/L	.	(16ee\LL	.	16gg\LL	.	8A\	-ne-	16e\LL	-ne-	.	16gg\LL	-ne-	1ryy	8ee\L	8gg\L	1ryy	1ryy
.	.	16cc#\J)	.	16ee\J	.	.	.	16c#\JJ	.	.	16ee\JJ	.	.	.	.	.	.
8D/	.	8dd\J	.	8ff#\J	.	8D\	-di-	8d\	-di-	.	8ff#\	-di-	.	8dd\J	8ff#\J	.	.
8E/	.	8a\L	.	4gg#X\	.	8E\L	-ce-	4B\	-ce-	.	4gg#X\	-ce-	.	4r	4r	.	.
8D/J	.	8b\J	.	.	.	8D\J	.	.	.	.	.	.	.	.	.	.	.
8C#/L	.	8ee\L	.	16aa\LL	.	8C#\L	.	8c#\L	.	.	8aa\L	.	.	8r	8r	.	.
.	.	.	.	16ee\	.	.	.	.	.	.	.	.	.	.	.	.	.
8D/	.	8b\	.	16ff#\	.	8D\J	.	8B\	.	.	8dd\	.	.	16ee\LL	16ee\LL	.	.
.	.	.	.	16dd\JJ	.	.	.	.	.	.	.	.	.	16ee\JJ	16ee\JJ	.	.
8E/	.	8a\	.	8cc#\L	.	4EM\	.	8A\	.	.	8cc#\	.	.	8ee\L	8ee\L	.	.
8EE/J	.	8g#X\J	.	8b\J	.	.	.	8G\J	.	.	8b\J	.	.	8ee\J	8ee\J	.	.
=10	=10	=10	=10	=10	=10	=10	=10	=10	=10	=10	=10	=10	=10	=10	=10	=10	=10
4AA/	.	16a/LL	.	16a\LL	.	4AA/	-tur	4A\	-tur	.	4a\	-tur	1ryy	4a/	4ee\	1ryy	1ryy
.	.	16a/	.	16aa\	.	.	.	.	.	.	.	.	.	.	.	.	.
.	.	16cc#/JJ	.	16cc#\	.	.	.	.	.	.	.	.	.	.	.	.	.
!	!	!LO:TX:t=P:problem=początek taktu-3 szesnanstki, nie 4	!	!	!	!	!	!	!	!	!	!	!	!	!	!	!
.	.	16yy	.	16ee\JJ	.	.	.	.	.	.	.	.	.	.	.	.	.
.	.	8qqcc#/	.	8qqee/	.	.	.	.	.	.	.	.	.	.	.	.	.
8r	.	4b/	.	4dd\	.	4r	.	4r	.	.	4r	.	.	16ee\LL	16ee\LL	.	.
!	!	!	!	!LO:LB:g=original	!	!	!	!	!	!	!	!	!	!	!	!	!
.	.	.	.	.	.	.	.	.	.	.	.	.	.	16ee\JJ	16ee\JJ	.	.
8E\	.	.	.	.	.	.	.	.	.	.	.	.	.	4a/	4ee\	.	.
4A\	.	(16a/LL	.	16cc#\LL	.	2r	.	2r	.	.	2r	.	.	.	.	.	.
.	.	16cc#/)	.	16aa\	.	.	.	.	.	.	.	.	.	.	.	.	.
.	.	(16a/	.	16cc#\	.	.	.	.	.	.	.	.	.	4r	4r	.	.
.	.	16cc#/JJ)	.	16ee\JJ	.	.	.	.	.	.	.	.	.	.	.	.	.
.	.	8qqcc#/	.	8qqee/	.	.	.	.	.	.	.	.	.	.	.	.	.
8r	.	4b/	.	4dd\	.	.	.	.	.	.	.	.	.	.	.	.	.
8E\	.	.	.	.	.	.	.	.	.	.	.	.	.	16ee\LL	16ee\LL	.	.
.	.	.	.	.	.	.	.	.	.	.	.	.	.	16ee\JJ	16ee\JJ	.	.
!	!	!LO:LB:g=original	!	!	!	!	!	!	!	!	!	!	!LO:LB:g=original	!	!	!	!
=11	=11	=11	=11	=11	=11	=11	=11	=11	=11	=11	=11	=11	=11	=11	=11	=11	=11
8AA/L	.	8a/L	.	8cc#\	.	00r	.	1r	.	.	00r	.	1ryy	4a/	4ee\	1ryy	1ryy
8D/	.	8a/	.	4ff#\	.	.	.	.	.	.	.	.	.	.	.	.	.
8D/	.	8a/	.	.	.	.	.	.	.	.	.	.	.	4r	4r	.	.
8D/J	.	8a/J	.	8f#/	.	.	.	.	.	.	.	.	.	.	.	.	.
8E\L	.	8B/L	.	8g#X/L	.	.	.	.	.	.	.	.	.	4r	4r	.	.
16C#\L	.	8c#/J	.	16a/L	.	.	.	.	.	.	.	.	.	.	.	.	.
16D\JJ	.	.	.	16b/JJ	.	.	.	.	.	.	.	.	.	.	.	.	.
!LO:TX:a:t=P:problem=mixed beam	!	!	!	!	!	!	!	!	!	!	!	!	!	!	!	!	!
8E\L	.	4g#X/	.	4b/	.	.	.	.	.	.	.	.	.	8r	8r	.	.
8EE/J	.	.	.	.	.	.	.	.	.	.	.	.	.	16ee\LL	16ee\LL	.	.
.	.	.	.	.	.	.	.	.	.	.	.	.	.	16ee\JJ	16ee\JJ	.	.
=12	=12	=12	=12	=12	=12	=12	=12	=12	=12	=12	=12	=12	=12	=12	=12	=12	=12
4AA/	.	4a/	.	4a/	.	.	.	4A\	Glo-	.	.	.	1ryy	4a/	4ee\	1ryy	1ryy
!	!LO:DY:a	!	!	!	!	!	!	!	!	!	!	!	!	!	!	!	!
4E\	p	4r	.	4r	.	.	.	16e\LL	.	.	.	.	.	4r	4r	.	.
.	.	.	.	.	.	.	.	16d\JJ	.	.	.	.	.	.	.	.	.
.	.	.	.	.	.	.	.	16c#\LL	.	.	.	.	.	.	.	.	.
.	.	.	.	.	.	.	.	16B\JJ	-ria	.	.	.	.	.	.	.	.
!	!	!	!	!	!	!	!	!	!	!LO:DY:a	!	!	!	!	!	!	!
8F#\L	.	2r	.	2r	.	.	.	4A\	.	p	.	.	.	2r	2r	.	.
16E\L	.	.	.	.	.	.	.	.	.	.	.	.	.	.	.	.	.
16D\JJ	.	.	.	.	.	.	.	.	.	.	.	.	.	.	.	.	.
!LO:TX:a:t=P:problem=mixed beam	!	!	!	!	!	!	!	!	!	!	!	!	!	!	!	!	!
8C#/L	.	.	.	.	.	.	.	8r	.	.	.	.	.	.	.	.	.
8c#\J	.	.	.	.	.	.	.	8E/	et	.	.	.	.	.	.	.	.
=13	=13	=13	=13	=13	=13	=13	=13	=13	=13	=13	=13	=13	=13	=13	=13	=13	=13
!	!	!	!	!	!LO:DY:a	!	!	!	!	!	!	!	!	!	!	!	!
8B\L	.	2r	.	2r	p	.	.	8d\	di-	.	.	.	1ryy	00r	00r	1ryy	1ryy
8A\	.	.	.	.	.	.	.	8d\	-vi-	.	.	.	.	.	.	.	.
8G#X\	.	.	.	.	.	.	.	8d\	-ti-	.	.	.	.	.	.	.	.
8E\J	.	.	.	.	.	.	.	8d\	.	.	.	.	.	.	.	.	.
!LO:TX:a:t=P:problem=mixed beam	!	!	!	!	!	!	!	!	!	!	!	!	!	!	!	!	!
8A\L	.	4r	.	4r	.	.	.	4c#\	-ae	.	.	.	.	.	.	.	.
!	!	!	!	!	!	!	!	!LO:LB:g=original	!	!	!	!	!	!	!	!	!
8AA/	.	.	.	.	.	.	.	.	.	.	.	.	.	.	.	.	.
8AA/	.	(8a\L	.	8cc#\L	.	.	.	8c#\L	in	.	.	.	.	.	.	.	.
8AA/J	.	8b\J)	.	8dd\J	.	.	.	8d\J	.	.	.	.	.	.	.	.	.
=14	=14	=14	=14	=14	=14	=14	=14	=14	=14	=14	=14	=14	=14	=14	=14	=14	=14
8AA/L	.	4cc#\	.	8ee\L	.	.	.	8e\	do-	.	.	.	1ryy	.	.	1ryy	1ryy
8AA/	.	.	.	8aa\	.	.	.	8a\	-mo	.	.	.	.	.	.	.	.
8AA/	.	8a\L	.	8cc#\	.	.	.	8c#\L	e-	.	.	.	.	.	.	.	.
8AA/J	.	8b\J	.	8dd\J	.	.	.	8d\J	.	.	.	.	.	.	.	.	.
.	.	8qqb/	.	8qqdd/	.	.	.	.	.	.	.	.	.	.	.	.	.
8AA/L	.	4cc#\	.	4ee\	.	.	.	4e\	-ius	.	.	.	.	.	.	.	.
8AA/	.	.	.	.	.	.	.	.	.	.	.	.	.	.	.	.	.
8AA/	.	8a\L	.	(8cc#\L	.	.	.	8c#\	et	.	.	.	.	.	.	.	.
8AA/J	.	8b\J	.	8dd\J)	.	.	.	8d\	iu-	.	.	.	.	.	.	.	.
=15	=15	=15	=15	=15	=15	=15	=15	=15	=15	=15	=15	=15	=15	=15	=15	=15	=15
8AA/L	.	4cc#\	.	8ee\L	.	00r	.	8e\	-sti	.	00r	.	1ryy	.	.	1ryy	1ryy
8AA/	.	.	.	8aa\	.	.	.	16a\	ti-	.	.	.	.	.	.	.	.
.	.	.	.	.	.	.	.	16a\	-a	.	.	.	.	.	.	.	.
8AA/	.	8a\L	.	(8cc#\	.	.	.	8c#\L	e-	.	.	.	.	.	.	.	.
8AA/J	.	8b\J	.	8dd\J)	.	.	.	8d\J	.	.	.	.	.	.	.	.	.
.	.	8qqb/	.	8qqdd/	.	.	.	.	.	.	.	.	.	.	.	.	.
8AA\L	.	4cc#\	.	4ee\	.	.	.	8e\	-jus	.	.	.	.	.	.	.	.
16A\L	.	.	.	.	.	.	.	8d\	ma-	.	.	.	.	.	.	.	.
16A\JJ	.	.	.	.	.	.	.	.	.	.	.	.	.	.	.	.	.
8G#X\L	.	4r	.	4r	.	.	.	8d\	-net	.	.	.	.	.	.	.	.
8E\J	.	.	.	.	.	.	.	8d\	in	.	.	.	.	.	.	.	.
=16	=16	=16	=16	=16	=16	=16	=16	=16	=16	=16	=16	=16	=16	=16	=16	=16	=16
8AA/L	.	1r	.	1r	.	.	.	8c#\L	sae-	.	.	.	1ryy	.	.	1ryy	1ryy
8BB/	.	.	.	.	.	.	.	8d\J	.	.	.	.	.	.	.	.	.
8C#/	.	.	.	.	.	.	.	8e\	.	.	.	.	.	.	.	.	.
8D/J	.	.	.	.	.	.	.	16a\	-cu-	.	.	.	.	.	.	.	.
.	.	.	.	.	.	.	.	16a\	-lum	.	.	.	.	.	.	.	.
!LO:TX:a:t=P:problem=mixed beam	!	!	!	!	!	!	!	!LO:N:vis=4.	!	!	!	!	!	!	!	!	!
8E\L	.	.	.	.	.	.	.	4E/	.	.	.	.	.	.	.	.	.
8D\	.	.	.	.	.	.	.	.	.	.	.	.	.	.	.	.	.
8E\	.	.	.	.	.	.	.	8.B\	se-	.	.	.	.	.	.	.	.
8EE/J	.	.	.	.	.	.	.	.	.	.	.	.	.	.	.	.	.
.	.	.	.	.	.	.	.	16B\	-cu-	.	.	.	.	.	.	.	.
!LO:LB:g=original	!	!LO:LB:g=original	!	!	!	!	!	!	!	!	!	!	!	!	!	!	!
=17	=17	=17	=17	=17	=17	=17	=17	=17	=17	=17	=17	=17	=17	=17	=17	=17	=17
!	!LO:DY:a	!	!LO:DY:a	!	!LO:DY:a	!	!	!	!	!	!	!	!	!	!	!	!
!	!	!	!LO:DY:Bt=for	!	!	!	!	!	!	!	!	!	!	!	!	!	!
4AA/	f	4r	f	4r	f	.	.	4A\	-li	.	.	.	1ryy	00r	00r	1ryy	1ryy
!LO:TX:a:t=P:problem=mixed beam	!	!	!	!	!	!	!	!	!	!	!	!	!	!	!	!	!
8AA/L	.	(8a\L	.	8cc#\L	.	.	.	4r	.	.	.	.	.	.	.	.	.
8A\	.	8b\J)	.	8dd\J	.	.	.	.	.	.	.	.	.	.	.	.	.
.	.	8qqb/	.	.	.	.	.	.	.	.	.	.	.	.	.	.	.
8AA/	.	4cc#\	.	8ee\L	.	.	.	2r	.	.	.	.	.	.	.	.	.
8A\J	.	.	.	8aa\	.	.	.	.	.	.	.	.	.	.	.	.	.
!LO:TX:a:t=P:problem=mixed beam	!	!	!	!	!	!	!	!	!	!	!	!	!	!	!	!	!
8AA/L	.	(8a\L	.	(8cc#\	.	.	.	.	.	.	.	.	.	.	.	.	.
8A\J	.	8b\J)	.	8dd\J)	.	.	.	.	.	.	.	.	.	.	.	.	.
!	!	!	!	!	!	!	!	!LO:LB:g=original	!	!	!	!	!	!	!	!	!
=18	=18	=18	=18	=18	=18	=18	=18	=18	=18	=18	=18	=18	=18	=18	=18	=18	=18
!LO:TX:a:t=P:problem=mixed beam	!	!	!	!	!	!	!	!	!	!	!	!	!	!	!	!	!
.	.	8qqdd/	.	8qqdd/	.	.	.	.	.	.	.	.	.	.	.	.	.
!	!LO:DY:a	!	!	!	!	!	!	!	!	!	!	!	!	!	!	!	!
8AA/L	p	4cc#\	.	4ee\	.	.	.	0r	.	.	.	.	1ryy	.	.	1ryy	1ryy
8A\	.	.	.	.	.	.	.	.	.	.	.	.	.	.	.	.	.
8AA/	.	(8a\L	.	8cc#\L	.	.	.	.	.	.	.	.	.	.	.	.	.
8A\J	.	8b\J)	.	8dd\J	.	.	.	.	.	.	.	.	.	.	.	.	.
!LO:TX:a:t=P:problem=mixed beam	!	!	!	!	!	!	!	!	!	!	!	!	!	!	!	!	!
8AA/L	.	4cc#\	.	8ee\L	.	.	.	.	.	.	.	.	.	.	.	.	.
8A\	.	.	.	8aa\	.	.	.	.	.	.	.	.	.	.	.	.	.
8AA/	.	(8a\L	.	8cc#\	.	.	.	.	.	.	.	.	.	.	.	.	.
8A\J	.	8b\J)	.	8dd\J	.	.	.	.	.	.	.	.	.	.	.	.	.
=19	=19	=19	=19	=19	=19	=19	=19	=19	=19	=19	=19	=19	=19	=19	=19	=19	=19
!LO:TX:a:t=P:problem=mixed beam	!LO:DY:a	!LO:TX:a:t=P:problem=mixed beam	!	!LO:TX:a:t=P:problem=mixed beam	!	!	!	!	!	!	!	!	!	!	!	!	!
!	!	!	!LO:DY:Bt=for	!	!	!	!	!	!	!	!	!	!	!	!	!	!
8AA/L	f	16cc#\LL	f	16ee\LL	.	1r	.	.	.	.	1r	.	1ryy	.	.	1ryy	1ryy
.	.	16e/	.	16e/	.	.	.	.	.	.	.	.	.	.	.	.	.
16B\L	.	16b\	.	16dd\	.	.	.	.	.	.	.	.	.	.	.	.	.
16A\JJ	.	16b\JJ	.	16dd\JJ	.	.	.	.	.	.	.	.	.	.	.	.	.
8G#X\L	.	8.b\L	.	8dd\L	.	.	.	.	.	.	.	.	.	.	.	.	.
8E\J	.	.	.	16cc#\L	.	.	.	.	.	.	.	.	.	.	.	.	.
.	.	(32a\LL	.	16b\JJ	.	.	.	.	.	.	.	.	.	.	.	.	.
.	.	32g#X\JJJ)	.	.	.	.	.	.	.	.	.	.	.	.	.	.	.
*	*	*Xtuplet	*	*Xtuplet	*	*	*	*	*	*	*	*	*	*	*	*	*
8A\L	.	24cc#\LL	.	24cc#\LL	.	.	.	.	.	.	.	.	.	.	.	.	.
.	.	24dd\	.	24dd\	.	.	.	.	.	.	.	.	.	.	.	.	.
.	.	24ee\JJ	.	24ee\JJ	.	.	.	.	.	.	.	.	.	.	.	.	.
8D\	.	24ff#\LL	.	24ff#\LL	.	.	.	.	.	.	.	.	.	.	.	.	.
.	.	24gg\	.	24gg#X\	.	.	.	.	.	.	.	.	.	.	.	.	.
.	.	24aa\JJ	.	24aa\JJ	.	.	.	.	.	.	.	.	.	.	.	.	.
!	!	!LO:LB:g=original	!	!	!	!	!	!	!	!	!	!	!	!	!	!	!
8E\	.	8e/L	.	8e/L	.	.	.	.	.	.	.	.	.	.	.	.	.
8E\J	.	8g#X/J	.	8b/J	.	.	.	.	.	.	.	.	.	.	.	.	.
=20	=20	=20	=20	=20	=20	=20	=20	=20	=20	=20	=20	=20	=20	=20	=20	=20	=20
!LO:TX:a:t=P:problem=mixed beam	!	!	!	!	!	!	!	!	!	!	!	!	!	!	!	!	!
8AA/L	.	16.a\LL	.	16.b\LL	.	8r	.	8r	.	.	8r	.	1ryy	.	.	1ryy	1ryy
.	.	32cc#\K	.	32ee\K	.	.	.	.	.	.	.	.	.	.	.	.	.
8A\	.	16.cc#\	.	16.ee\	.	8A\	Ex-	8c#\	ex-	.	8ee\	ex-	.	.	.	.	.
.	.	32cc#\JJk	.	32ee\JJk	.	.	.	.	.	.	.	.	.	.	.	.	.
8A\	.	16.cc#\LL	.	16.ee\LL	.	8A\	-or-	8c#\	-or-	.	8ee\	-or-	.	.	.	.	.
.	.	32cc#\K	.	32ee\K	.	.	.	.	.	.	.	.	.	.	.	.	.
8A\J	.	16.cc#\	.	16.ee\	.	8A\	-tum	8c#\	-tum	.	8ee\	-tum	.	.	.	.	.
.	.	32cc#\JJk	.	32ee\JJk	.	.	.	.	.	.	.	.	.	.	.	.	.
8Gn\L	.	16.cc#\LL	.	16.ee\LL	.	8Gn\	est	8c#\	est	.	8ee\	est	.	.	.	.	.
.	.	32a#X\K	.	32cc#\K	.	.	.	.	.	.	.	.	.	.	.	.	.
8G\	.	16.cc#\	.	16.ee\	.	8G\	in	8c#\	in	.	8ee\	in	.	.	.	.	.
.	.	32cc#\JJk	.	32ee\JJk	.	.	.	.	.	.	.	.	.	.	.	.	.
!	!	!LO:LB:g=original	!	!	!	!	!	!	!	!	!	!	!	!	!	!	!
8G\	.	16.cc#\LL	.	16.ee\LL	.	8G\	te-	8c#\	te-	.	8ee\	te-	.	.	.	.	.
!	!	!	!	!	!	!	!	!	!	!	!LO:LB:g=original	!	!	!	!	!	!
.	.	32cc#\K	.	32ee\K	.	.	.	.	.	.	.	.	.	.	.	.	.
8G\J	.	16.cc#\	.	16.ee\	.	16G\	-ne-	16c#\	-ne-	.	16ee\	-ne-	.	.	.	.	.
!	!	!	!	!	!	!LO:LB:g=original	!	!	!	!	!	!	!	!	!	!	!
.	.	.	.	.	.	16G\	-Bris	16c#\	-bris	.	16ee\	-bris	.	.	.	.	.
.	.	32cc#\JJk	.	32ee\JJk	.	.	.	.	.	.	.	.	.	.	.	.	.
!	!	!	!	!	!	!	!	!	!	!	!	!	!	!LO:LB:g=original	!	!	!
=21	=21	=21	=21	=21	=21	=21	=21	=21	=21	=21	=21	=21	=21	=21	=21	=21	=21
8F#\L	.	16.cc#\LL	.	16.ee\LL	.	8F#\	lu-	8c#\	lu-	.	8ee\	lu-	1ryy	8r	8r	1ryy	1ryy
.	.	32a#X\K	.	32cc#\K	.	.	.	.	.	.	.	.	.	.	.	.	.
8F#\	.	16.cc#\	.	16.ee\	.	8F#\	-men	8c#\	-men	.	8ee\	-men	.	16f#/LL	16f#/LL	.	.
.	.	.	.	.	.	.	.	.	.	.	.	.	.	16f#/JJ	16f#/JJ	.	.
.	.	32cc#\JJk	.	32ee\JJk	.	.	.	.	.	.	.	.	.	.	.	.	.
8F#\	.	16.cc#\LL	.	16.ee\LL	.	4F#\	re-	8c#\L	.	.	8ee\L	.	.	8f#/L	8f#/L	.	.
.	.	32cc#\K	.	32ee\K	.	.	.	.	.	.	.	.	.	.	.	.	.
8F#\J	.	16.b\	.	16.dd\	.	.	.	16B\L	.	.	16dd\L	re-	.	8f#/J	8f#/J	.	.
!	!	!	!	!	!	!	!	!	!LO:SIC:s=re	!	!	!	!	!	!	!	!
.	.	.	.	.	.	.	.	16A#X\JJ	e-	.	16cc#\JJ	.	.	.	.	.	.
.	.	32a#X\JJk	.	32cc#\JJk	.	.	.	.	.	.	.	.	.	.	.	.	.
8BB/L	.	8b\L	.	16.dd\LL	.	8BB/	-ctis	8B\	-ctis	.	8dd\	-ctis	.	4f#/	4f#/	.	.
.	.	.	.	32b\K	.	.	.	.	.	.	.	.	.	.	.	.	.
8BB/	.	8dd\	.	16.ff#\	.	8BB/	mi-	8B\	mi-	.	8ff#\	mi-	.	.	.	.	.
.	.	.	.	32ff#\JJk	.	.	.	.	.	.	.	.	.	.	.	.	.
8D/	.	8b\	.	16gg\LL	.	8D\	-se-	8B\	-se-	.	8ff#\	-se-	.	4r	4r	.	.
.	.	.	.	32ee\L	.	.	.	.	.	.	.	.	.	.	.	.	.
.	.	.	.	32ff#\JJJ	.	.	.	.	.	.	.	.	.	.	.	.	.
8E/J	.	8b\J	.	16gg\LL	.	8E\	-ri-	8B\	-ri-	.	16ee\LL	-ri-	.	.	.	.	.
.	.	.	.	16b\JJ	.	.	.	.	.	.	16dd\JJ	.	.	.	.	.	.
!	!	!	!	!	!	!	!	!	!	!	!	!	!	!LO:LB:g=original	!	!	!
=22	=22	=22	=22	=22	=22	=22	=22	=22	=22	=22	=22	=22	=22	=22	=22	=22	=22
.	.	8qqd/	.	8qqb/	.	.	.	.	.	.	.	.	.	.	.	.	.
!LO:TX:a:t=P:problem=mixed beam	!	!	!	!	!	!	!	!	!	!	!	!	!	!	!	!	!
8F#\L	.	4c#/	.	4a#X/	.	4F#\	-cors	4A#X\	-cors	.	4cc#\	-cors	1ryy	0r	0r	1ryy	1ryy
8FF#/	.	.	.	.	.	.	.	.	.	.	.	.	.	.	.	.	.
!	!	!	!	!	!	!	!	!	!LO:SIC:s=et	!	!	!	!	!	!	!	!
8F#\	.	8c#/L	.	16f#/LL	.	4F#\	et	4c#\	e	.	4a#X\	et	.	.	.	.	.
.	.	.	.	16a#X/J	.	.	.	.	.	.	.	.	.	.	.	.	.
8F#\J	.	8c#/J	.	8a#/J	.	.	.	.	.	.	.	.	.	.	.	.	.
8F#\L	.	16e/LL	.	16cc#\LL	.	8F#\	mi-	16e\LL	mi-	.	16cc#\LL	mi-	.	.	.	.	.
.	.	16c#/J	.	16a#X\JJ	.	.	.	16c#\JJ	.	.	16a#X\JJ	.	.	.	.	.	.
8F#\	.	8d/J	.	8b\	.	8F#\	-se-	8d\	-se-	.	8b\	-se-	.	.	.	.	.
8F#\	.	8d/L	.	16f#/LL	.	4F#\	-ra-	4d\	-ra-	.	4b\	-ra-	.	.	.	.	.
.	.	.	.	16b/J	.	.	.	.	.	.	.	.	.	.	.	.	.
8F#\J	.	8d/J	.	8b/J	.	.	.	.	.	.	.	.	.	.	.	.	.
=23	=23	=23	=23	=23	=23	=23	=23	=23	=23	=23	=23	=23	=23	=23	=23	=23	=23
8F#\L	.	16b/LL	.	(16dd\LL	.	8F#\	.	16B\LL	.	.	16dd\LL	-tor	1ryy	.	.	1ryy	1ryy
.	.	16g#X/J	.	16b\J	.	.	.	16G#X\JJ	-tor	.	16b\JJ	.	.	.	.	.	.
8F#\	.	8a#X/J	.	8cc#\J)	.	8F#\	-tor	8A#X\	.	.	8cc#\	.	.	.	.	.	.
8F#\	.	16f#/LL	.	16f#/LL	.	4F#\	et	4A#\	et	.	4cc#\	et	.	.	.	.	.
!	!	!	!	!	!	!	!	!LO:LB:g=original	!	!	!	!	!	!	!	!	!
.	.	16a#X/J	.	16cc#/J	.	.	.	.	.	.	.	.	.	.	.	.	.
8F#\J	.	8a#t/J	.	8cc#/J	.	.	.	.	.	.	.	.	.	.	.	.	.
!LO:TX:a:t=P:problem=mixed beam	!	!	!	!	!	!	!	!	!	!	!	!	!	!	!	!	!
8F#\L	.	16cc#\LL	.	16ee\LL	.	8F#\	jus-	16c#\LL	ius	.	16ee\LL	ius	.	.	.	.	.
.	.	16a#X\J	.	16cc#\J	.	.	.	16A#X\JJ	.	.	16cc#\JJ	.	.	.	.	.	.
8BB/J	.	8b\J	.	8dd\J	.	8BB/	-tus	8B\	tus	.	8dd\	mi-	.	.	.	.	.
!	!	!	!	!	!	!LO:PB:g=original	!	!	!	!	!	!	!	!	!	!	!
*	*	*	*	*tuplet	*	*	*	*	*	*	*	*	*	*	*	*	*
8BB/L	.	(24dd\LL	.	24dd\LL	.	8BB/	Mi-	8B\	mi-	.	8dd\	-se-	.	.	.	.	.
.	.	24cc#\	.	24cc#\	.	.	.	.	.	.	.	.	.	.	.	.	.
.	.	24b\)	.	24b\	.	.	.	.	.	.	.	.	.	.	.	.	.
16D/L	.	16dd'\	.	16bb\	.	16D\LL	-se-	8B\	-se-	.	8dd\	-ra-	.	.	.	.	.
16E/JJ	.	16dd'\JJ	.	16bb\JJ	.	16E\JJ	.	.	.	.	.	.	.	.	.	.	.
=24	=24	=24	=24	=24	=24	=24	=24	=24	=24	=24	=24	=24	=24	=24	=24	=24	=24
!LO:TX:a:t=P:problem=mixed beam	!	!	!	!	!	!	!	!	!	!	!	!	!	!	!	!	!
.	.	8qqdd/	.	8qqbb/	.	.	.	.	.	.	.	.	.	.	.	.	.
8F#/L	.	8.cc#\L	.	8.aa#\L	.	4F#\	-ra-	8.A#X\L	-ra-	.	8cc#\L	-tor	1ryy	8r	8r	1ryy	1ryy
8AA#X\	.	.	.	.	.	.	.	.	.	.	8gg\J	.	.	16f#/LL	16f#/LL	.	.
.	.	16ee\Jk	.	16ggn\Jk	.	.	.	16e\Jk	.	.	.	.	.	16f#/JJ	16f#/JJ	.	.
8AA#/	.	16dd\LL	.	16ff#\LL	.	8A#X\	-tor	16d\LL	-tor	.	16ff#\LL	.	.	8f#/L	8f#/L	.	.
.	.	16cc#\	.	16ee\	.	.	.	16c#\JJ	.	.	16ee\	.	.	.	.	.	.
8AA#/J	.	16b\	.	16dd\	.	8A#\	et	16B\LL	.	.	16dd\	et	.	8f#/J	8f#/J	.	.
.	.	16a#X\JJ	.	16cc#\JJ	.	.	.	16A#X\JJ	et	.	16cc#\JJ	.	.	.	.	.	.
!	!	!	!	!LO:LB:g=original	!	!	!	!	!	!	!	!	!	!	!	!	!
.	.	.	.	8qqee/	.	.	.	.	.	.	.	.	.	.	.	.	.
8BB/L	.	4b\	.	8dd\L	.	8B\L	.	4B\	jus-	.	8dd\L	ius-	.	4f#/	4f#/	.	.
8D\	.	.	.	16cc#\L	.	8D\	jus-	.	.	.	16cc#\L	.	.	.	.	.	.
.	.	.	.	16b\JJ	.	.	.	.	.	.	16b\JJ	.	.	.	.	.	.
8E\	.	4a#Xt\	.	4cc#\	.	8E\	.	4A#X\	.	.	4cc#\	.	.	8f#/L	8f#/L	.	.
8F#\J	.	.	.	.	.	8F#\J	.	.	.	.	.	.	.	16f#/L	16f#/L	.	.
.	.	.	.	.	.	.	.	.	.	.	.	.	.	16f#/JJ	16f#/JJ	.	.
!LO:LB:g=original	!	!	!	!	!	!	!	!	!	!	!	!	!	!	!	!	!
=25	=25	=25	=25	=25	=25	=25	=25	=25	=25	=25	=25	=25	=25	=25	=25	=25	=25
4BB/	.	4b\	.	4b\	.	4BB/	-tus	4B\	-tus	.	4b\	-tus	1ryy	4f#/	4f#/	1ryy	1ryy
16BB/LL	.	16dd\LL	.	8b\L	.	4r	.	4r	.	.	4r	.	.	4r	4r	.	.
16C#/	.	16ee\	.	.	.	.	.	.	.	.	.	.	.	.	.	.	.
16D/	.	16ff#\	.	8bb\J	.	.	.	.	.	.	.	.	.	.	.	.	.
16E/JJ	.	16ggn\JJ	.	.	.	.	.	.	.	.	.	.	.	.	.	.	.
.	.	.	.	8qqbb/	.	.	.	.	.	.	.	.	.	.	.	.	.
!LO:TX:a:t=P:problem=mixed beam	!	!	!	!	!	!	!	!	!	!	!	!	!	!	!	!	!
8F#\L	.	8.cc#\L	.	8.aa#X\L	.	2r	.	2r	.	.	2r	.	.	8r	8r	.	.
8AA#X/	.	.	.	.	.	.	.	.	.	.	.	.	.	16f#/LL	16f#/LL	.	.
.	.	16ee\Jk	.	16ggn\Jk	.	.	.	.	.	.	.	.	.	16f#/JJ	16f#/JJ	.	.
8AA#/	.	16dd\LL	.	16ff#\LL	.	.	.	.	.	.	.	.	.	8f#/L	8f#/L	.	.
.	.	16cc#\	.	16ee\	.	.	.	.	.	.	.	.	.	.	.	.	.
8AA#/J	.	16b\	.	16dd\	.	.	.	.	.	.	.	.	.	8f#/J	8f#/J	.	.
.	.	16a#X\JJ	.	16cc#\JJ	.	.	.	.	.	.	.	.	.	.	.	.	.
!	!	!	!	!	!	!	!	!	!	!	!LO:LB:g=original	!	!	!	!	!	!
=26	=26	=26	=26	=26	=26	=26	=26	=26	=26	=26	=26	=26	=26	=26	=26	=26	=26
.	.	.	.	8qqee/	.	.	.	.	.	.	.	.	.	.	.	.	.
8BB/L	.	4b/	.	8dd\L	.	00r	.	1r	.	.	1r	.	1ryy	4f#/	4f#/	1ryy	1ryy
8D\	.	.	.	16cc#\L	.	.	.	.	.	.	.	.	.	.	.	.	.
.	.	.	.	16b\JJ	.	.	.	.	.	.	.	.	.	.	.	.	.
8E\	.	4a#X/	.	4cc#\	.	.	.	.	.	.	.	.	.	8f#/L	8f#/L	.	.
8F#\J	.	.	.	.	.	.	.	.	.	.	.	.	.	16f#/L	16f#/L	.	.
.	.	.	.	.	.	.	.	.	.	.	.	.	.	16f#/JJ	16f#/JJ	.	.
4BB/	.	8b/L	.	8b/L	.	.	.	.	.	.	.	.	.	4f#/	4f#/	.	.
.	.	8f#/J	.	8f#/J	.	.	.	.	.	.	.	.	.	.	.	.	.
4r	.	4B/	.	4B/	.	.	.	.	.	.	.	.	.	4r	4r	.	.
=27	=27	=27	=27	=27	=27	=27	=27	=27	=27	=27	=27	=27	=27	=27	=27	=27	=27
!	!LO:DY:a	!	!LO:DY:a	!	!	!	!	!	!	!	!LO:TX:a:i:t=Solo	!	!	!	!	!	!
8B\L	p	8dd\L	p	8ff#\L	.	.	.	4d\	iu-	.	4ff#\	iu-	1ryy	00r	00r	1ryy	1ryy
8B\	.	8dd\	.	8ff#\	.	.	.	.	.	.	.	.	.	.	.	.	.
8B\	.	8dd\	.	8ff#\	.	.	.	8d\	-cun-	.	8ff#\	-cun-	.	.	.	.	.
8B\J	.	8dd\J	.	8ff#\J	.	.	.	8d\	-dus	.	8ff#\	-dus	.	.	.	.	.
8B\L	.	8ee\L	.	8gg\L	.	.	.	8e\	ho-	.	8gg\	ho-	.	.	.	.	.
8B\	.	8dd\	.	8ff#\	.	.	.	8d\	-mo	.	8ff#\	-mo	.	.	.	.	.
8B\	.	8dd\	.	8bb\	.	.	.	8r	.	.	8r	.	.	.	.	.	.
8B\J	.	8dd\J	.	8ff#\J	.	.	.	8d\	qui	.	8ff#\	qui	.	.	.	.	.
!	!	!LO:PB:g=original	!	!	!	!	!	!	!	!	!	!	!	!	!	!	!
=28	=28	=28	=28	=28	=28	=28	=28	=28	=28	=28	=28	=28	=28	=28	=28	=28	=28
4F#\	.	8cc#\L	.	8ee\L	.	.	.	8c#\	mi-	.	8ee\	mi-	1ryy	.	.	1ryy	1ryy
.	.	8b\J	.	8dd\J	.	.	.	8B\	-se-	.	8dd\	-se-	.	.	.	.	.
4F#\	.	8cc#\L	.	8ee\L	.	.	.	8c#\	-re-	.	8ee\	-re-	.	.	.	.	.
.	.	(16b\L	.	16dd\L	.	.	.	16B\	-tur	.	16dd\	-tur	.	.	.	.	.
.	.	16a#X\JJ)	.	16cc#\JJ	.	.	.	16A#X\	et	.	16cc#\	et	.	.	.	.	.
8.BB/L	.	(16f#/LL	.	16dd\LL	.	.	.	16F#/	com-	.	16dd\	com-	.	.	.	.	.
.	.	16e/	.	16cc#\	.	.	.	16E/	-mo-	.	16cc#\	-mo-	.	.	.	.	.
.	.	16d/	.	16b\	.	.	.	8D/	-dat	.	8b\	-dat	.	.	.	.	.
16D/Jk	.	16g/JJ)	.	16b\JJ	.	.	.	.	.	.	.	.	.	.	.	.	.
8C#/L	.	8f#/L	.	8a/L	.	.	.	4r	.	.	4r	.	.	.	.	.	.
8AA/J	.	8e/J	.	8g/J	.	.	.	.	.	.	.	.	.	.	.	.	.
!	!	!	!	!	!	!	!	!LO:LB:g=original	!	!	!	!	!	!	!	!	!
=29	=29	=29	=29	=29	=29	=29	=29	=29	=29	=29	=29	=29	=29	=29	=29	=29	=29
!	!	!	!	!LO:TX:a:t=P:problem=mixed beam	!	!	!	!	!	!	!	!	!	!	!	!	!
8D\L	.	8d/L	.	8f#/L	.	.	.	8A\	dis-	.	8dd\	dis-	1ryy	.	.	1ryy	1ryy
8F#\	.	8a/	.	8dd\	.	.	.	8A\	-po-	.	8dd\	-po-	.	.	.	.	.
8G\	.	8b/	.	8ee\	.	.	.	8B\	-net	.	8ee\	-net	.	.	.	.	.
8F#\J	.	8a/J	.	8ee\J	.	.	.	8A\	ser-	.	8dd\	ser-	.	.	.	.	.
8G\L	.	8b/L	.	8ee\L	.	.	.	8B\	-mo-	.	8ee\	-mo-	.	.	.	.	.
16F#\L	.	8a/J	.	8ee\J	.	.	.	8A\	-nes	.	8dd\	-nes	.	.	.	.	.
16E\JJ	.	.	.	.	.	.	.	.	.	.	.	.	.	.	.	.	.
8F#\L	.	4r	.	4r	.	.	.	4r	.	.	4r	.	.	.	.	.	.
8D\J	.	.	.	.	.	.	.	.	.	.	.	.	.	.	.	.	.
=30	=30	=30	=30	=30	=30	=30	=30	=30	=30	=30	=30	=30	=30	=30	=30	=30	=30
8r	.	8ee\L	.	8gg\L	.	00r	.	8e\	su-	.	8gg\	su-	1ryy	.	.	1ryy	1ryy
8AA/L	.	8ee\	.	8gg\	.	.	.	8e\	-os	.	8gg\	-o	.	.	.	.	.
8C#/	.	8ee\	.	8gg\	.	.	.	8e\	in	.	8gg\	in	.	.	.	.	.
!	!	!	!	!	!	!	!	!	!	!	!LO:LB:g=original	!	!	!	!	!	!
8D/J	.	8dd\J	.	8ff#\J	.	.	.	8d\	iu-	.	8ff#\	iu-	.	.	.	.	.
!LO:TX:a:t=P:problem=mixed beam	!	!	!	!	!	!	!	!	!	!	!	!	!	!	!	!	!
8A\L	.	8dd\L	.	8ff#\L	.	.	.	16d\	-di-	.	16ff#\	-di-	.	.	.	.	.
.	.	.	.	.	.	.	.	16d\	-ti-	.	16ff#\	-ti-	.	.	.	.	.
8AA/J	.	8cc#\J	.	8ee\J	.	.	.	8c#\	-o	.	8ee\	-o	.	.	.	.	.
16A\LL	.	4r	.	4r	.	.	.	4r	.	.	4r	.	.	.	.	.	.
16G\	.	.	.	.	.	.	.	.	.	.	.	.	.	.	.	.	.
16F#\	.	.	.	.	.	.	.	.	.	.	.	.	.	.	.	.	.
16E\JJ	.	.	.	.	.	.	.	.	.	.	.	.	.	.	.	.	.
=31	=31	=31	=31	=31	=31	=31	=31	=31	=31	=31	=31	=31	=31	=31	=31	=31	=31
8D\L	.	4ff#\	.	4aa\	.	.	.	8f#\	qui-	.	8aa\	qui	1ryy	0r	0r	1ryy	1ryy
8D\	.	.	.	.	.	.	.	8f#\	-a	.	8aa\	a	.	.	.	.	.
8D\	.	8ee\L	.	8gg\L	.	.	.	8e\	in	.	8gg\	in	.	.	.	.	.
!	!	!	!	!	!	!	!	!	!LO:SIC:s=ae	!	!	!	!	!	!	!	!
8D\J	.	8dd\J	.	8ff#\J	.	.	.	8d\	e	.	8ff#\	e	.	.	.	.	.
!	!	!	!	!	!	!	!	!LO:N:vis=8	!	!	!	!	!	!	!	!	!
!LO:TX:a:t=P:problem=mixed beam	!	!	!	!	!	!	!	!	!	!	!	!	!	!	!	!	!
8A\L	.	4ee\	.	4gg\	.	.	.	4e\	ter-	.	4gg\	ter-	.	.	.	.	.
8AA/	.	.	.	.	.	.	.	.	.	.	.	.	.	.	.	.	.
8AA/	.	4ee\	.	4gg\	.	.	.	4e\	-num	.	4gg\	-num	.	.	.	.	.
8AA/J	.	.	.	.	.	.	.	.	.	.	.	.	.	.	.	.	.
!	!	!	!	!LO:LB:g=original	!	!	!	!	!	!	!	!	!	!	!	!	!
=32	=32	=32	=32	=32	=32	=32	=32	=32	=32	=32	=32	=32	=32	=32	=32	=32	=32
8AA/L	.	4ee\	.	4gg\	.	.	.	8e\	qui	.	8gg\	qui	1ryy	.	.	1ryy	1ryy
8AA/	.	.	.	.	.	.	.	8e\	a	.	8gg\	a	.	.	.	.	.
8AA/	.	8dd\L	.	8ff#\L	.	.	.	8d\	in	.	8ff#\	in	.	.	.	.	.
!	!	!	!	!	!	!	!	!	!LO:SIC:s-ae	!	!	!	!	!	!	!	!
8AA/J	.	8cc#\J	.	8ee\J	.	.	.	8c#\	e-	.	8ee\	e-	.	.	.	.	.
8D\L	.	4dd\	.	4ff#\	.	.	.	4d\	-ter-	.	4ff#\	-ter-	.	.	.	.	.
8D\	.	.	.	.	.	.	.	.	.	.	.	.	.	.	.	.	.
8D\	.	4dd\	.	4ff#\	.	.	.	4d\	-num	.	4ff#\	-num	.	.	.	.	.
8D\J	.	.	.	.	.	.	.	.	.	.	.	.	.	.	.	.	.
!	!	!	!	!	!	!	!	!LO:LB:g=original	!	!	!	!	!	!	!	!	!
=33	=33	=33	=33	=33	=33	=33	=33	=33	=33	=33	=33	=33	=33	=33	=33	=33	=33
8D\L	.	4a/	.	4ff#\	.	.	.	4A/	non	.	4ff#\	non	1ryy	1r	1r	1ryy	1ryy
8D\	.	.	.	.	.	.	.	.	.	.	.	.	.	.	.	.	.
8G\	.	8g/L	.	8ee\L	.	.	.	8G/	com-	.	8ee\	com-	.	.	.	.	.
8B\J	.	8f#/J	.	8dd\J	.	.	.	8F#/	-mo-	.	8dd\	-mo-	.	.	.	.	.
8A\L	.	4eT/	.	4cc#\	.	.	.	4E/	-ve-	.	4cc#\	.	.	.	.	.	.
8G\	.	.	.	.	.	.	.	.	.	.	.	.	.	.	.	.	.
8F#\	.	8f#/L	.	8dd\L	.	.	.	8F#/L	.	.	8dd\L	-ve-	.	.	.	.	.
8G\J	.	8g/J	.	8ee\J	.	.	.	8G/J	.	.	8ee\J	.	.	.	.	.	.
!LO:LB:g=original	!	!	!	!	!	!	!	!	!	!	!	!	!	!	!	!	!
=34	=34	=34	=34	=34	=34	=34	=34	=34	=34	=34	=34	=34	=34	=34	=34	=34	=34
!LO:TX:a:t=P:problem=mixed beam	!	!	!	!	!	!	!	!	!	!	!	!	!	!	!	!	!
8A\L	.	4f#/	.	4dd\	.	2r	.	4F#/	.	.	4dd\	.	1ryy	2r	2r	1ryy	1ryy
8G\	.	.	.	.	.	.	.	.	.	.	.	.	.	.	.	.	.
8A\	.	4gT/	.	4ee\	.	.	.	8.G/	.	.	8.ee\	.	.	.	.	.	.
8AA/J	.	.	.	.	.	.	.	.	.	.	.	.	.	.	.	.	.
.	.	.	.	.	.	.	.	16G/	-bi-	.	16ee\	-bi-	.	.	.	.	.
4D\	.	16f#/LL	.	16dd\LL	.	4r	.	4F#/	-tur	.	4dd\	-tur	.	4r	4r	.	.
.	.	16a/	.	16dd\	.	.	.	.	.	.	.	.	.	.	.	.	.
.	.	16dd/	.	16ff#\	.	.	.	.	.	.	.	.	.	.	.	.	.
.	.	16ff#/JJ	.	16aa\JJ	.	.	.	.	.	.	.	.	.	.	.	.	.
!	!LO:DY:t=for	!	!	!	!	!	!	!	!	!	!	!	!	!	!	!	!
!	!LO:DY:a	!	!	!	!	!	!	!	!	!	!	!	!	!	!	!	!
8D\L	f	16ff#\LL	.	16ddd\LL	.	8D\	in	8A\	in	.	8ff#\	in	.	8dd\L	8ff#\L	.	.
.	.	16a\	.	16dd\	.	.	.	.	.	.	.	.	.	.	.	.	.
8D\J	.	16dd\	.	16ff#\	.	8D\	me-	8A\	me-	.	8ff#\	me-	.	8dd\J	8ff#\J	.	.
.	.	16ff#\JJ	.	16ddd\JJ	.	.	.	.	.	.	.	.	.	.	.	.	.
!	!	!	!	!	!	!	!	!	!	!	!LO:LB:g=original	!	!	!	!	!	!
=35	=35	=35	=35	=35	=35	=35	=35	=35	=35	=35	=35	=35	=35	=35	=35	=35	=35
!LO:TX:a:t=P:problem=mixed beam	!LO:DY:a	!	!	!	!	!	!	!	!	!	!	!	!	!	!	!	!
8A\L	.	16ee\LL	.	16ccc#\LL	.	8A\	-mo-	8c#\	-mo-	.	8ee\	-mo-	1ryy	8a\L	8ee\L	1ryy	1ryy
!	!	!	!	!LO:TX:a:t=P:problem=mixed beam	!	!	!	!	!	!	!	!	!	!	!	!	!
.	.	16a\	.	16a/	.	.	.	.	.	.	.	.	.	.	.	.	.
8AA/	.	16ee\	.	16gg\	.	8A\	-ri-	8e\	-ri-	.	8gg\	-ri-	.	16ee\L	16gg\L	.	.
.	.	16ee\JJ	.	16gg\JJ	.	.	.	.	.	.	.	.	.	16ee\JJ	16gg\JJ	.	.
8AA/	.	16ee\LL	.	16gg\LL	.	8A\	-a	8e\	-a	.	8gg\	-a	.	8ee\L	8gg\L	.	.
!	!	!	!	!LO:TX:a:t=P:problem=mixed beam	!	!	!	!	!	!	!	!	!	!	!	!	!
.	.	16a\	.	16a/	.	.	.	.	.	.	.	.	.	.	.	.	.
8AA/J	.	16ee\	.	16gg\	.	8A\	ae-	8e\	ae-	.	8gg\	ae-	.	8ee\J	8gg\J	.	.
.	.	16ee\JJ	.	16gg\JJ	.	.	.	.	.	.	.	.	.	.	.	.	.
8D\L	.	16dd\LL	.	16ff#\LL	.	8D\	-ter-	8d\	-ter-	.	8ff#\	-ter-	.	4dd\	4ff#\	.	.
.	.	16a\	.	16dd\	.	.	.	.	.	.	.	.	.	.	.	.	.
!	!	!	!	!	!	!	!LO:SIC:s=na	!	!	!	!	!	!	!	!	!	!
8D\	.	16dd\	.	16ff#\	.	8D\	-ra	8d\	-na	.	8ff#\	-na	.	.	.	.	.
.	.	16ff#\JJ	.	16aa\JJ	.	.	.	.	.	.	.	.	.	.	.	.	.
8D\	.	16ff#\LL	.	16ddd\LL	.	8D\	e-	8A\	e-	.	8ff#\	e-	.	8dd\L	8ff#\L	.	.
.	.	16a\	.	16dd\	.	.	.	.	.	.	.	.	.	.	.	.	.
8D\J	.	16dd\	.	16ff#\	.	8D\	-rit	8A\	-rit	.	8ff#\	-rit	.	8dd\J	8ff#\J	.	.
.	.	16ff#\JJ	.	16ddd\JJ	.	.	.	.	.	.	.	.	.	.	.	.	.
=36	=36	=36	=36	=36	=36	=36	=36	=36	=36	=36	=36	=36	=36	=36	=36	=36	=36
!LO:TX:a:t=P:problem=mixed beam	!LO:DY:a	!	!	!	!	!	!	!	!	!	!	!	!	!	!	!	!
8A\L	.	16ee\LL	.	16ccc#\LL	.	4A\	jus-	4c#\	jus-	.	4ee\	jus-	1ryy	8a\L	8ee\L	1ryy	1ryy
!	!	!	!	!LO:TX:a:t=P:problem=mixed beam	!	!	!	!	!	!	!	!	!	!	!	!	!
.	.	16a\	.	16a/	.	.	.	.	.	.	.	.	.	.	.	.	.
8AA/	.	16ee\	.	16gg\	.	.	.	.	.	.	.	.	.	8ee\	8gg\	.	.
.	.	16ee\JJ	.	16gg\JJ	.	.	.	.	.	.	.	.	.	.	.	.	.
!	!	!LO:LB:g=original	!	!	!	!	!	!	!	!	!	!	!	!	!	!	!
8AA/	.	16ee\LL	.	16gg\LL	.	4AA/	.	4e\	-tus-	.	4gg\	-tus	.	8ee\	8gg\	.	.
!	!	!	!	!LO:TX:a:t=P:problem=mixed beam	!	!	!	!	!	!	!	!	!	!	!	!	!
.	.	16a\	.	16a/	.	.	.	.	.	.	.	.	.	.	.	.	.
8AA\J	.	16ee\	.	16gg\	.	.	.	.	.	.	.	.	.	8ee\J	8gg\J	.	.
.	.	16ee\JJ	.	16gg\JJ	.	.	.	.	.	.	.	.	.	.	.	.	.
8D\L	.	16dd\LL	.	16ff#\LL	.	8D\	-tus	8d\	.	.	8ff#\	ab	.	8dd\L	8ff#\L	.	.
!	!	!	!	!	!	!LO:LB:g=original	!	!	!	!	!	!	!	!	!	!	!
.	.	16a\	.	16dd\	.	.	.	.	.	.	.	.	.	.	.	.	.
16D\L	.	16dd\	.	16ff#\	.	16D\	Ab	16A\	ab	.	16dd\	au	.	16dd\L	16ff#\L	.	.
16D\JJ	.	16ff#\JJ	.	16aa\JJ	.	16D\	au-	16A\	au-	.	16dd\	.	.	16dd\JJ	16ff#\JJ	.	.
8D\L	.	16aa\LL	.	16cccn\LL	.	8D/	-di-	8A\	-di-	.	8dd\	-di-	.	8dd\L	8ff#\L	.	.
.	.	16dd\	.	16dd\	.	.	.	.	.	.	.	.	.	.	.	.	.
8D\J	.	16aa\	.	16ccc\	.	8D/	-ti-	8A\	-ti-	.	8dd\	-tio-	.	8dd\J	8ff#\J	.	.
.	.	16dd\JJ	.	16dd\JJ	.	.	.	.	.	.	.	.	.	.	.	.	.
!	!	!	!	!	!	!	!	!LO:LB:g=original	!	!	!	!	!	!	!LO:LB:g=original	!	!
=37	=37	=37	=37	=37	=37	=37	=37	=37	=37	=37	=37	=37	=37	=37	=37	=37	=37
8G\L	.	16gg\LL	.	16bb\LL	.	8G\	-o-	8B\	-o-	.	8dd\	.	1ryy	4dd\	4gg\	1ryy	1ryy
.	.	16ff#\	.	16aa\	.	.	.	.	.	.	.	.	.	.	.	.	.
8G\	.	16ee\	.	16gg\	.	8G\	-ne	8B\	-ne	.	8dd\	-ne	.	.	.	.	.
.	.	16dd\JJ	.	16ff#\JJ	.	.	.	.	.	.	.	.	.	.	.	.	.
8G\	.	16cc#/LL	.	16ee\LL	.	8G\L	ma-	4c#\	ma-	.	8ee\L	.	.	4r	4r	.	.
.	.	16b/	.	16dd\	.	.	.	.	.	.	.	.	.	.	.	.	.
8G#X\J	.	16a/	.	16cc#\	.	8G#X\J	.	.	.	.	8dd\J	ma-	.	.	.	.	.
.	.	16g/JJ	.	16b\JJ	.	.	.	.	.	.	.	.	.	.	.	.	.
!LO:TX:a:t=P:problem=mixed beam	!	!	!	!	!	!	!	!	!	!	!	!	!	!	!	!	!
.	.	.	.	.	.	.	.	8qqF#/	.	.	.	.	.	.	.	.	.
8A\L	.	16e/LL	.	16cc#\LL	.	4A\	-la	4E/	-la	.	4cc#\	-la	.	8r	8r	.	.
.	.	16d/J	.	16b\J	.	.	.	.	.	.	.	.	.	.	.	.	.
8AA/	.	8c#/J	.	8a\J	.	.	.	.	.	.	.	.	.	16a/LL	16ee\LL	.	.
.	.	.	.	.	.	.	.	.	.	.	.	.	.	16a/JJ	16ee\JJ	.	.
8AA/	.	16c#/LL	.	16a\LL	.	8A\	non	8E/	non	.	8a\	non	.	8a/L	8ee\L	.	.
.	.	16e/J	.	16cc#\J	.	.	.	.	.	.	.	.	.	.	.	.	.
8AA/J	.	8eT/J	.	8cc#m\J	.	8A\	ti-	8E/	ti-	.	8cc#\	ti-	.	8a/J	8ee\J	.	.
=38	=38	=38	=38	=38	=38	=38	=38	=38	=38	=38	=38	=38	=38	=38	=38	=38	=38
*	*	*	*	*	*	*2\right	*	*	*	*	*	*	*	*	*	*	*
8AA/L	.	16g/LL	.	16ee\LL	.	2A\	me-	16G/LL	-me-	.	16ee\LL	-me-	1ryy	8a\L	8ee\L	1ryy	1ryy
.	.	16e/J	.	16cc#\J	.	.	.	16E/JJ	.	.	16cc#\JJ	.	.	.	.	.	.
8AA/	.	8f#/J	.	8ddM\J	.	.	.	8F#/	-bit	.	8dd\	-bit	.	8dd\J	8ff#\J	.	.
8AA/	.	8f#/L	.	16a\LL	.	.	.	8F#/	non	.	8a\	non	.	4r	4r	.	.
!	!	!	!	!	!	!	!	!	!	!	!LO:LB:g=original	!	!	!	!	!	!
.	.	.	.	16dd\J	.	.	.	.	.	.	.	.	.	.	.	.	.
8AA/J	.	8f#/J	.	8ddM\J	.	.	.	8F#/	ti-	.	8dd\	ti-	.	.	.	.	.
8AA/L	.	(16dd\LL	.	16ff#\LL	.	2A\	.	16d\LL	-me-	.	16ff#\LL	-me-	.	8dd\L	8ff#\L	.	.
.	.	16b\J	.	16dd\J	.	.	.	16B\JJ	.	.	16dd\JJ	.	.	.	.	.	.
8AA/	.	8cc#\J)	.	8ee\J	.	.	.	8c#\	-bit	.	8ee\	-bit	.	8a\J	8ee\J	.	.
!	!	!LO:TX:a:t=P:problem=mixed beam	!	!	!	!	!	!	!	!	!	!	!	!	!	!	!
*	*	*	*	*	*	*	*	*	*ij	*	*	*	*	*	*	*	*
8AA/	.	16e/LL	.	16a\LL	.	.	.	8A\	non-	.	8cc#\	non-	.	4r	4r	.	.
.	.	16cc#\J	.	16ee\J	.	.	.	.	.	.	.	.	.	.	.	.	.
8AA/J	.	8cc#t\J	.	8eeM\J	.	.	.	8c#\	-ti-	.	8ee\	-ti-	.	.	.	.	.
!	!	!	!	!LO:LB:g=original	!	!	!	!	!	!	!	!	!	!LO:LB:g=original	!	!	!
=39	=39	=39	=39	=39	=39	=39	=39	=39	=39	=39	=39	=39	=39	=39	=39	=39	=39
8AA/L	.	16ee\LL	.	16gg\LL	.	8A\	-bit	16e\LL	-me-	.	16gg\LL	-me-	1ryy	8ee\L	8gg\L	1ryy	1ryy
.	.	16cc#\J	.	16ee\J	.	.	.	16c#\JJ	.	.	16ee\JJ	.	.	.	.	.	.
8D\J	.	8dd\J	.	8ff#\J	.	8D\	non	8d\	.	.	8ff#\	-bit	.	8dd\J	8ff#\J	.	.
8G\L	.	8b\L	.	16bb\LL	.	8G\L	ti-	4B\	-bit	.	4ee\	ti-	.	8dd\L	8dd\L	.	.
.	.	.	.	16ee\	.	.	.	.	.	.	.	.	.	.	.	.	.
8G\J	.	8b\J	.	16ff#\	.	8G\J	.	.	.	.	.	.	.	8dd\J	8dd\J	.	.
.	.	.	.	16gg\JJ	.	.	.	.	.	.	.	.	.	.	.	.	.
*	*	*	*	*	*	*	*	*	*Xij	*	*	*	*	*	*	*	*
8A\L	.	8e/L	.	8cc#\L	.	8A\L	-me-	8E/L	non	.	8cc#\L	-me-	.	8a\L	8ee\L	.	.
16F#\L	.	16a/L	.	16dd\L	.	16F#\L	.	16A/L	.	.	16dd\L	.	.	8dd\	8ff#\	.	.
16G\JJ	.	16b/JJ	.	16ee\JJ	.	16G\JJ	.	16c#/JJ	ti-	.	16ee\JJ	.	.	.	.	.	.
!LO:TX:a:t=P:problem=mixed beam	!	!	!	!	!	!LO:TX:a:t=P:problem=mixed beamm	!	!	!	!	!	!	!	!	!	!	!
8A\L	.	4cc#t\	.	4ee\	.	8A\L	.	4c#\	-me-	.	4ee\	.	.	8a\	8ee\	.	.
8AA/J	.	.	.	.	.	8AA/J	.	.	.	.	.	.	.	8a\J	8ee\J	.	.
=40	=40	=40	=40	=40	=40	=40	=40	=40	=40	=40	=40	=40	=40	=40	=40	=40	=40
!	!	!	!	!	!	!	!	!	!	!	!	!	!	!LO:TX:a:t=P:problem=mixed beam	!	!	!
4D\	.	16dd\LL	.	16dd\LL	.	4D\	-bit	4d\	-bit	.	4dd\	-bit	1ryy	8f#/L	8dd\L	1ryy	1ryy
.	.	(16ff#\	.	16ddd\	.	.	.	.	.	.	.	.	.	.	.	.	.
.	.	16dd\)	.	16ff#\	.	.	.	.	.	.	.	.	.	8ff#\J	8aa\J	.	.
.	.	16ff#\JJ	.	16aa\JJ	.	.	.	.	.	.	.	.	.	.	.	.	.
.	.	8qqff#/	.	8qqaa/	.	.	.	.	.	.	.	.	.	8qqff#/	8qqaa/	.	.
8r	.	4ee\	.	4gg\	.	4r	.	4r	.	.	4r	.	.	4ee\	4gg\	.	.
8A\	.	.	.	.	.	.	.	.	.	.	.	.	.	.	.	.	.
4d\	.	(16dd\LL	.	16ff#\LL	.	2r	.	2r	.	.	2r	.	.	8dd\L	8ff#\L	.	.
.	.	16ff#\)	.	16ddd\	.	.	.	.	.	.	.	.	.	.	.	.	.
.	.	(16dd\	.	16ff#\	.	.	.	.	.	.	.	.	.	8ff#\J	8aa\J	.	.
.	.	16ff#\JJ)	.	16aa\JJ	.	.	.	.	.	.	.	.	.	.	.	.	.
.	.	8qqff#/	.	8qqaa/	.	.	.	.	.	.	.	.	.	8qqff#/	8qqaa/	.	.
8r	.	4ee\	.	4gg\	.	.	.	.	.	.	.	.	.	4ee\	4gg\	.	.
8A\	.	.	.	.	.	.	.	.	.	.	.	.	.	.	.	.	.
=41	=41	=41	=41	=41	=41	=41	=41	=41	=41	=41	=41	=41	=41	=41	=41	=41	=41
!	!	!LO:TX:a:t=d	!	!	!	!	!	!	!	!	!	!	!	!	!	!	!
8D\L	.	8dd 8b\	.	8ff#\	.	1r	.	00r	.	.	00r	.	1ryy	8dd\L	8ff#\L	1ryy	1ryy
!	!	!LO:TX:a:t=d	!	!	!	!	!	!	!	!	!	!	!	!	!	!	!
8G\	.	4dd 4b\	.	4bb\	.	.	.	.	.	.	.	.	.	8dd\	8dd\	.	.
8G\	.	.	.	.	.	.	.	.	.	.	.	.	.	8dd\	8dd\	.	.
!	!	!LO:TX:a:t=d	!	!	!	!	!	!	!	!	!	!	!	!	!	!	!
8G\J	.	8dd 8b\	.	8b\	.	.	.	.	.	.	.	.	.	8dd\J	8dd\J	.	.
8A\L	.	8e/L	.	8cc#\L	.	.	.	.	.	.	.	.	.	8a\L	8ee\L	.	.
16F#\L	.	16a/L	.	16dd\L	.	.	.	.	.	.	.	.	.	8dd\	8ff#\	.	.
16G\JJ	.	16b/JJ	.	16ee\JJ	.	.	.	.	.	.	.	.	.	.	.	.	.
!LO:TX:a:t=P:problem=mixed beam	!	!	!	!	!	!	!	!	!	!	!	!	!	!	!	!	!
8A\L	.	4cc#\	.	4ee\	.	.	.	.	.	.	.	.	.	8a\	8ee\	.	.
8AA/J	.	.	.	.	.	.	.	.	.	.	.	.	.	8a\J	8ee\J	.	.
!LO:LB:g=original	!	!	!	!	!	!LO:LB:g=original	!	!	!	!	!	!	!	!	!	!	!
=42	=42	=42	=42	=42	=42	=42	=42	=42	=42	=42	=42	=42	=42	=42	=42	=42	=42
!	!LO:DY:a	!	!	!	!	!	!	!	!	!	!	!	!	!	!	!	!
4D\	p	4dd\	.	4dd\	.	4r	.	.	.	.	.	.	1ryy	4f#/	4dd\	1ryy	1ryy
8r	.	4r	.	4r	.	8D\L	Pa-	.	.	.	.	.	.	4r	4r	.	.
8D\	.	.	.	.	.	8d\J	-ra-	.	.	.	.	.	.	.	.	.	.
4A\	.	2r	.	2r	.	8c#\L	.	.	.	.	.	.	.	2r	2r	.	.
.	.	.	.	.	.	8B\J	.	.	.	.	.	.	.	.	.	.	.
4AA/	.	.	.	.	.	8A\	-tum	.	.	.	.	.	.	.	.	.	.
.	.	.	.	.	.	8G\	cor	.	.	.	.	.	.	.	.	.	.
=43	=43	=43	=43	=43	=43	=43	=43	=43	=43	=43	=43	=43	=43	=43	=43	=43	=43
!	!	!	!	!	!LO:DY:a	!	!	!	!	!	!	!	!	!	!	!	!
4D\	.	4r	p	4r	p	16F#\LL	e-	.	.	.	.	.	1ryy	00r	00r	1ryy	1ryy
.	.	.	.	.	.	16E\JJ	.	.	.	.	.	.	.	.	.	.	.
.	.	.	.	.	.	8D\	-jus	.	.	.	.	.	.	.	.	.	.
8r	.	8r	.	8r	.	8B\L	Spe-	.	.	.	.	.	.	.	.	.	.
8F#\	.	8f#/	.	8f#/	.	8F#\J	.	.	.	.	.	.	.	.	.	.	.
8G\L	.	8g/L	.	8g/L	.	8G\L	-ra	.	.	.	.	.	.	.	.	.	.
8F#\	.	8f#/	.	8f#/	.	8F#\J	.	.	.	.	.	.	.	.	.	.	.
8E\	.	8e/	.	8e/	.	8E\L	in	.	.	.	.	.	.	.	.	.	.
8A\J	.	8a/J	.	8a/J	.	8A\J	.	.	.	.	.	.	.	.	.	.	.
!	!	!LO:LB:g=original	!	!	!	!	!	!	!	!	!	!	!	!	!	!	!
=44	=44	=44	=44	=44	=44	=44	=44	=44	=44	=44	=44	=44	=44	=44	=44	=44	=44
16F#\LL	.	16f#/LL	.	16f#/LL	.	16F#\	do-	.	.	.	.	.	1ryy	.	.	1ryy	1ryy
16E\J	.	16e/J	.	16e/J	.	16E\	-mi-	.	.	.	.	.	.	.	.	.	.
8D\J	.	8d/J	.	8d/J	.	4D\	-no	.	.	.	.	.	.	.	.	.	.
8F#\L	.	4r	.	4r	.	.	.	.	.	.	.	.	.	.	.	.	.
8E\J	.	.	.	.	.	8r	.	.	.	.	.	.	.	.	.	.	.
8D\L	.	4f#/	.	4a/	.	4D/	Con-	.	.	.	.	.	.	.	.	.	.
8D\	.	.	.	.	.	.	.	.	.	.	.	.	.	.	.	.	.
8D\	.	4a/	.	4ccn\	.	4cn\	-fir-	.	.	.	.	.	.	.	.	.	.
8D\J	.	.	.	.	.	.	.	.	.	.	.	.	.	.	.	.	.
=45	=45	=45	=45	=45	=45	=45	=45	=45	=45	=45	=45	=45	=45	=45	=45	=45	=45
4GG/	.	8d/L	.	8b/L	.	8B\L	-ma-	00r	.	.	00r	.	1ryy	.	.	1ryy	1ryy
.	.	8c#/J	.	8a/J	.	8A\J	.	.	.	.	.	.	.	.	.	.	.
4r	.	4B/	.	4g/	.	4G\	-tum	.	.	.	.	.	.	.	.	.	.
8D\L	.	4f#/	.	4a/	.	4A\	est	.	.	.	.	.	.	.	.	.	.
8D\	.	.	.	.	.	.	.	.	.	.	.	.	.	.	.	.	.
8D\	.	4a/	.	4ccn\	.	4c#\	cor	.	.	.	.	.	.	.	.	.	.
8D\J	.	.	.	.	.	.	.	.	.	.	.	.	.	.	.	.	.
=46	=46	=46	=46	=46	=46	=46	=46	=46	=46	=46	=46	=46	=46	=46	=46	=46	=46
4GG/	.	8d/L	.	8b/L	.	8B\L	.	.	.	.	.	.	1ryy	.	.	1ryy	1ryy
.	.	8c#/J	.	8a/J	.	8A\J	e	.	.	.	.	.	.	.	.	.	.
4r	.	4B/	.	4g/	.	4G\	non	.	.	.	.	.	.	.	.	.	.
8BB/L	.	8d/L	.	8g/L	.	4G\	.	.	.	.	.	.	.	.	.	.	.
!	!	!	!	!	!	!LO:LB:g=original	!	!	!	!	!	!	!	!	!	!	!
8BB/	.	8d/	.	8g/	.	.	.	.	.	.	.	.	.	.	.	.	.
8BB/	.	8d/	.	8g/	.	8B\	co-	.	.	.	.	.	.	.	.	.	.
8BB/J	.	8d/J	.	8g/J	.	8D\	-mo-	.	.	.	.	.	.	.	.	.	.
=47	=47	=47	=47	=47	=47	=47	=47	=47	=47	=47	=47	=47	=47	=47	=47	=47	=47
8Cn/L	.	8e/L	.	8g/L	.	8.E\	-ve-	.	.	.	.	.	1ryy	00r	00r	1ryy	1ryy
8C/	.	8e/	.	8g/	.	.	.	.	.	.	.	.	.	.	.	.	.
.	.	.	.	.	.	16E\	-bi-	.	.	.	.	.	.	.	.	.	.
8C/	.	8e/	.	8g/	.	4E\	-tur	.	.	.	.	.	.	.	.	.	.
8C/J	.	8e/J	.	8g/J	.	.	.	.	.	.	.	.	.	.	.	.	.
!	!	!	!	!LO:LB:g=original	!	!	!	!	!	!	!	!	!	!	!	!	!
8C/L	.	8e/L	.	8a/L	.	4A\	do-	.	.	.	.	.	.	.	.	.	.
8C/	.	8e/	.	8a/	.	.	.	.	.	.	.	.	.	.	.	.	.
8C/	.	8e/	.	8a/	.	8cn\	-nec	.	.	.	.	.	.	.	.	.	.
8C/J	.	8e/J	.	8a/J	.	8E\	de-	.	.	.	.	.	.	.	.	.	.
=48	=48	=48	=48	=48	=48	=48	=48	=48	=48	=48	=48	=48	=48	=48	=48	=48	=48
8D\L	.	8f#/L	.	8a/L	.	8.F#\	-spi-	.	.	.	.	.	1ryy	.	.	1ryy	1ryy
8D\	.	8f#/	.	8a/	.	.	.	.	.	.	.	.	.	.	.	.	.
.	.	.	.	.	.	16F#\	-ci-	.	.	.	.	.	.	.	.	.	.
8D\	.	8f#/	.	8a/	.	4F#\	-at	.	.	.	.	.	.	.	.	.	.
8D\J	.	8f#/J	.	8a/J	.	.	.	.	.	.	.	.	.	.	.	.	.
8D\L	.	4a/	.	4ccn\	.	4cn\	i-	.	.	.	.	.	.	.	.	.	.
8D\	.	.	.	.	.	.	.	.	.	.	.	.	.	.	.	.	.
.	.	8qqg/	.	8qqb/	.	.	.	.	.	.	.	.	.	.	.	.	.
8D\	.	4f#/	.	4a\	.	4A\	-ni-	.	.	.	.	.	.	.	.	.	.
8D\J	.	.	.	.	.	.	.	.	.	.	.	.	.	.	.	.	.
=49	=49	=49	=49	=49	=49	=49	=49	=49	=49	=49	=49	=49	=49	=49	=49	=49	=49
4GG/	.	4g/	.	4b\	.	8B\L	-mi-	1r	.	.	1r	.	1ryy	.	.	1ryy	1ryy
.	.	.	.	.	.	8F#\J	.	.	.	.	.	.	.	.	.	.	.
!	!	!	!	!	!	!LO:TX:a:t=P:problem=mixed beam	!	!	!	!	!	!	!	!	!	!	!
8r	.	8r	.	8r	.	8G\L	-cos	.	.	.	.	.	.	.	.	.	.
8Cn/	.	8c#/	.	8cn/	.	8Cn/J	.	.	.	.	.	.	.	.	.	.	.
!	!	!	!	!	!LO:DY:Bt=for	!	!	!	!	!	!	!	!	!	!	!	!
*2\right	*	*	*	*	*	*	*	*	*	*	*	*	*	*	*	*	*
2D\	.	2d/	.	2d/	f	4D\	su-	.	.	.	.	.	.	.	.	.	.
.	.	.	.	.	.	4F#\	.	.	.	.	.	.	.	.	.	.	.
=50	=50	=50	=50	=50	=50	=50	=50	=50	=50	=50	=50	=50	=50	=50	=50	=50	=50
!LO:TX:a:t=P:problem=mixed beam	!LO:DY:a	!	!	!	!LO:DY:a	!	!	!	!	!	!	!	!	!	!	!	!
!	!LO:DY:t=for	!	!	!	!	!	!	!	!	!	!	!	!	!	!	!	!
8GG/L	f	8g/L	.	16G/LL	.	8G\	-os	8r	.	.	8r	.	1ryy	.	.	1ryy	1ryy
.	.	.	.	16g/	.	.	.	.	.	.	.	.	.	.	.	.	.
8G\	.	8b/J	.	16b/	.	8G\	Dis-	8B\	dis-	.	8dd\	Dis-	.	.	.	.	.
.	.	.	.	16dd/JJ	.	.	.	.	.	.	.	.	.	.	.	.	.
8G\	.	4ccnT\	.	4ee\	.	4G\	-per-	4cn\	-per-	.	4ee\	-per-	.	.	.	.	.
!	!	!	!	!	!	!	!	!LO:LB:g=original	!	!	!	!	!	!	!	!	!
8G\J	.	.	.	.	.	.	.	.	.	.	.	.	.	.	.	.	.
!	!	!	!	!	!	!	!	!	!	!	!LO:SIC:s=sit	!	!	!	!	!	!
8G\L	.	8b\L	.	16dd\LL	.	4G\	-sit	4B\	-sit	.	4dd\	-si	.	.	.	.	.
.	.	.	.	16g\	.	.	.	.	.	.	.	.	.	.	.	.	.
8G\	.	8b\J	.	16b\	.	.	.	.	.	.	.	.	.	.	.	.	.
.	.	.	.	16dd\JJ	.	.	.	.	.	.	.	.	.	.	.	.	.
8G\	.	4ccnT\	.	4ee\	.	4G\	de-	4c\	de-	.	4ee\	de-	.	.	.	.	.
8G\J	.	.	.	.	.	.	.	.	.	.	.	.	.	.	.	.	.
!LO:LB:g=original	!	!	!	!	!	!LO:LB:g=original	!	!	!	!	!	!	!	!	!	!	!
=51	=51	=51	=51	=51	=51	=51	=51	=51	=51	=51	=51	=51	=51	=51	=51	=51	=51
8G\L	.	4b\	.	4dd\	.	4G\	-Dit	4B\	-dit	.	4dd\	-dit	1ryy	00r	00r	1ryy	1ryy
8G\	.	.	.	.	.	.	.	.	.	.	.	.	.	.	.	.	.
8G\	.	4ccn\	.	4ee\	.	4G\	de-	4c#\	pau	.	4ee\	de-	.	.	.	.	.
8G\J	.	.	.	.	.	.	.	.	.	.	.	.	.	.	.	.	.
!LO:TX:a:t=P:problem=mixed beam	!	!	!	!	!	!	!	!	!	!	!	!	!	!	!	!	!
8B\L	.	16b\LL	.	16dd\LL	.	8B\	-dit	8B\	-pe-	.	16dd\LL	-dit	.	.	.	.	.
.	.	16ee\	.	16gg\	.	.	.	.	.	.	16gg\JJ	.	.	.	.	.	.
8cn\	.	16dd\	.	16ff#\	.	8cn\	pau-	16d\LL	.	.	16ff#\LL	pau-	.	.	.	.	.
.	.	16ccn\JJ	.	16ee\JJ	.	.	.	16cn\JJ	.	.	16ee\JJ	.	.	.	.	.	.
!	!	!	!	!	!	!	!	!LO:LB:g=original	!	!	!	!	!	!	!	!	!
8d\	.	8b/L	.	8dd\L	.	8d\	-pe-	8B\	.	.	8dd\	-pe-	.	.	.	.	.
8D/J	.	8a/J	.	8ccn\J	.	8D/	-ri-	8A\	-ri-	.	8ccn\	-ri-	.	.	.	.	.
=52	=52	=52	=52	=52	=52	=52	=52	=52	=52	=52	=52	=52	=52	=52	=52	=52	=52
!	!	!	!	!	!	!LO:N:vis=8	!	!	!	!	!	!	!	!	!	!	!
8G\L	.	8g/L	.	16cc#\LL	.	4G\	-bus	8G/	-bus	.	8b\	-bus	1ryy	.	.	1ryy	1ryy
.	.	.	.	16g\	.	.	.	.	.	.	.	.	.	.	.	.	.
8Cn\	.	8g/	.	16ee\	.	.	.	8G/	ius-	.	16ee\LL	jus-	.	.	.	.	.
.	.	.	.	16dd\JJ	.	.	.	.	.	.	16dd\JJ	.	.	.	.	.	.
!	!	!	!	!	!	!LO:N:vis=8	!	!	!	!	!	!	!	!	!	!	!
8C\	.	8g/	.	16ccn/LL	.	4Cn/	jus-	8G/	-ti-	.	8cc#\	ti-	.	.	.	.	.
.	.	.	.	16b/	.	.	.	.	.	.	.	.	.	.	.	.	.
8C\J	.	8e/J	.	16a/	.	.	.	16E/	-ti-	.	16cc#\	-ti-	.	.	.	.	.
.	.	.	.	16g/JJ	.	.	.	16E/	-a	.	16b\	-a	.	.	.	.	.
.	.	8qqB/	.	.	.	.	.	.	.	.	.	.	.	.	.	.	.
8D\L	.	4A/	.	16f#/LL	.	8C/	-ti-	8F#/	e-	.	8a\	e-	.	.	.	.	.
.	.	.	.	16e/J	.	.	.	.	.	.	.	.	.	.	.	.	.
8D\	.	.	.	8d/J	.	16C/	-ti-	8F#/	-jus	.	8a\	-ius	.	.	.	.	.
.	.	.	.	.	.	16C/	-a	.	.	.	.	.	.	.	.	.	.
8D\	.	8f#/L	.	24aa\LL	.	8D\	e-	8A\	ma-	.	8cc#\	ma-	.	.	.	.	.
.	.	.	.	24gg\	.	.	.	.	.	.	.	.	.	.	.	.	.
.	.	.	.	24ff#\JJ	.	.	.	.	.	.	.	.	.	.	.	.	.
8G\J	.	8a/J	.	24ee\LL	.	8D\	-ius	16A\	-net	.	16cc#\	-net	.	.	.	.	.
.	.	.	.	24dd\	.	.	.	.	.	.	.	.	.	.	.	.	.
.	.	.	.	.	.	.	.	16A\	in	.	16cc#\	in	.	.	.	.	.
.	.	.	.	24ccn\JJ	.	.	.	.	.	.	.	.	.	.	.	.	.
=53	=53	=53	=53	=53	=53	=53	=53	=53	=53	=53	=53	=53	=53	=53	=53	=53	=53
!	!	!	!	!	!	!	!	!	!	!	!LO:SIC:s=ae	!	!	!	!	!	!
8G\L	.	8g/L	.	32b\KLL	.	8D\	ma-	8G\	sae-	.	8b\	se-	1ryy	.	.	1ryy	1ryy
.	.	.	.	16.gg\	.	.	.	.	.	.	.	.	.	.	.	.	.
8Cn\	.	8a/	.	32ee\K	.	16F#\	-net	16A\	-cu-	.	16cc#\	-cu-	.	.	.	.	.
.	.	.	.	16.ccn\JJ	.	.	.	.	.	.	.	.	.	.	.	.	.
.	.	.	.	.	.	16F#\	in	16A\	-lum	.	16cc#\	-lum	.	.	.	.	.
8D\	.	8g/	.	8b/L	.	8G\	sae-	8G/	sae-	.	8b\	sae-	.	.	.	.	.
8D\J	.	8f#/J	.	8a/J	.	16Cn/	-cu-	8F#/	-cu-	.	8a\	-cu-	.	.	.	.	.
.	.	.	.	.	.	16C/	-lum	.	.	.	.	.	.	.	.	.	.
!	!	!	!	!	!	!LO:LB:g=original	!	!	!	!	!	!	!	!	!	!	!
4GG/	.	4g/	.	8g/L	.	8D/	Sae-	8G/	-li	.	8g\	-li	.	.	.	.	.
!	!	!	!	!	!	!	!	!LO:N:vis=4	!	!	!	!	!	!	!	!	!
.	.	.	.	8g/	.	8D/	-cu-	4.r	.	.	8g\L	cor-	.	.	.	.	.
4r	.	4r	.	8b/	.	4GG/	-li	.	.	.	8b\J	.	.	.	.	.	.
.	.	.	.	8dd/J	.	.	.	.	.	.	8dd\	-nu	.	.	.	.	.
!	!	!	!	!	!	!	!	!	!LO:LB:g=original	!	!LO:LB:g=original	!	!	!	!	!	!
=54	=54	=54	=54	=54	=54	=54	=54	=54	=54	=54	=54	=54	=54	=54	=54	=54	=54
8r	.	8r	.	4gg\	.	8r	.	8r	.	.	4gg\	E-	1ryy	.	.	1ryy	1ryy
8G\L	.	8b\L	.	.	.	8G\L	e-	8B\L	E-	.	.	.	.	.	.	.	.
8B\	.	8dd\	.	4ffn\	.	8B\	.	8d\	-ius	.	4ffn\	-jus	.	.	.	.	.
8d\J	.	8b\J	.	.	.	8d\J	.	8B\J	.	.	.	.	.	.	.	.	.
4cn\	.	4g/	.	8ee\L	.	4cn\	-jus	4G/	.	.	8ee\	.	.	.	.	.	.
.	.	.	.	8a\	.	.	.	.	.	.	8a\L	cor-	.	.	.	.	.
4r	.	4r	.	8cc#X\	.	4r	.	4r	.	.	8cc#\J	.	.	.	.	.	.
.	.	.	.	8ee\J	.	.	.	.	.	.	8ee\	-nu	.	.	.	.	.
!	!	!LO:LB:g=original	!	!LO:LB:g=original	!	!	!	!	!	!	!	!	!	!	!	!	!
=55	=55	=55	=55	=55	=55	=55	=55	=55	=55	=55	=55	=55	=55	=55	=55	=55	=55
8r	.	8r	.	4aa\	.	8r	.	8r	.	.	4aa\	e-	1ryy	1r	1r	1ryy	1ryy
8A\L	.	8cc#X\L	.	.	.	8A\L	e-	8c#X\L	e-	.	.	.	.	.	.	.	.
8c#X\	.	8ee\	.	4gg#X\	.	8c#\	.	8e\	.	.	4gg\	-jus	.	.	.	.	.
8e\J	.	8cc#\J	.	.	.	8e\J	.	8c#\J	.	.	.	.	.	.	.	.	.
8d\L	.	4a/	.	8ff#\	.	4d\	-jus	4A\	-ius	.	4ff#X\	.	.	.	.	.	.
8G\	.	.	.	4bb\	.	.	.	.	.	.	.	.	.	.	.	.	.
8G\	.	8r	.	.	.	8G\	e-	8B\	e-	.	8ee\	e-	.	.	.	.	.
8G\J	.	8b\	.	16ee\LL	.	8G\	-xal-	8B\	-xal-	.	16ee\LL	-xal-	.	.	.	.	.
.	.	.	.	16dd\JJ	.	.	.	.	.	.	16dd\JJ	.	.	.	.	.	.
=56	=56	=56	=56	=56	=56	=56	=56	=56	=56	=56	=56	=56	=56	=56	=56	=56	=56
!LO:TX:a:t=P:problem=mixed beam	!	!	!	!LO:TX:a:t=P:problem=mixed beam	!	!	!	!	!	!	!	!	!	!	!	!	!
8A\L	.	16e/LL	.	16cc#\LL	.	8A\	-ta-	8E/	-ta-	.	8cc#\	-ta-	1ryy	8r	8r	1ryy	1ryy
.	.	16g/	.	16ee\	.	.	.	.	.	.	.	.	.	.	.	.	.
8AA/	.	16e/	.	16g/	.	8A\	-bi-	8E/	-bi-	.	8cc#\	-bi-	.	16a/LL	16ee\LL	.	.
.	.	16e/JJ	.	16g/JJ	.	.	.	.	.	.	.	.	.	16a/JJ	16ee\JJ	.	.
8AA/	.	8.e/L	.	8.g/L	.	8A\	-tur	8E/	-tur	.	8cc#\	-tur	.	8a/L	8ee\L	.	.
.	.	.	.	.	.	.	.	.	.	.	.	.	.	.	.	.	.
8AA/J	.	.	.	.	.	8A\	in	8E/	in	.	8cc#\	in	.	8a/J	8ee\J	.	.
.	.	(32d/LL	.	32f#/LL	.	.	.	.	.	.	.	.	.	.	.	.	.
.	.	32c#/JJJ)	.	32e/JJJ	.	.	.	.	.	.	.	.	.	.	.	.	.
8D\L	.	8d/L	.	16f#/LL	.	8D\L	glo-	8F#/L	glo-	.	4dd\	glo-	.	4dd\	4ff#\	.	.
.	.	.	.	16a/JJ	.	.	.	.	.	.	.	.	.	.	.	.	.
16E\L	.	16a/L	.	16dd\LL	.	16F#\L	.	16A/L	.	.	.	.	.	.	.	.	.
16F#\JJ	.	16b/JJ	.	16ee\JJ	.	16G\JJ	.	16c#/JJ	.	.	.	.	.	.	.	.	.
!LO:TX:a:t=P:problem=mixed beam	!	!	!	!	!	!LO:TX:a:t=P:problem=mixed beam	!	!	!	!	!	!	!	!	!	!	!
8A\L	.	4cc#t\	.	4ee\	.	8A\L	-ri-	8.c#\	.	.	8.ee\	.	.	8a/L	8ee\L	.	.
8AA/J	.	.	.	.	.	8AA/J	.	.	.	.	.	.	.	8a/J	8ee\J	.	.
.	.	.	.	.	.	.	.	16c#\	-ri-	.	16ee\	-ri-	.	.	.	.	.
!	!	!	!	!	!	!	!	!	!	!	!	!	!	!	!LO:LB:g=original	!	!
=57	=57	=57	=57	=57	=57	=57	=57	=57	=57	=57	=57	=57	=57	=57	=57	=57	=57
4D\	.	8dd\L	.	8ff#\L	.	4D\	-a	4d\	-a	.	4dd\	-a	1ryy	4dd\	4ff#\	1ryy	1ryy
.	.	8ff#\	.	8ddd\	.	.	.	.	.	.	.	.	.	.	.	.	.
!LO:TX:a:t=P:problem=mixed beam	!	!	!	!	!	!	!	!	!	!	!	!	!	!	!	!	!
8A\L	.	8cc#\	.	8cc#\	.	4r	.	4r	.	.	4r	.	.	8a/L	8ee\L	.	.
8AA/J	.	8ee\J	.	8ccc#\J	.	.	.	.	.	.	.	.	.	8a/J	8ee\J	.	.
!LO:TX:a:t=P:problem=mixed beam	!	!	!	!LO:TX:a:t=P:problem=mixed beam	!	!	!	!	!	!	!	!	!	!	!	!	!
8D\L	.	8ff#\L	.	8ddd\L	.	2r	.	2r	.	.	2r	.	.	8dd\L	8ff#\L	.	.
!	!	!LO:TX:a:t=P:problem=mixed beam	!	!	!	!	!	!	!	!	!	!	!	!	!	!	!
8F#\	.	8f#/	.	8cc#\	.	.	.	.	.	.	.	.	.	8dd\	8ff#\	.	.
8A\	.	8c#/	.	8e/	.	.	.	.	.	.	.	.	.	8a\	8ee\	.	.
8AA/J	.	8e/J	.	8cc#\J	.	.	.	.	.	.	.	.	.	8a\J	8ee\J	.	.
=58	=58	=58	=58	=58	=58	=58	=58	=58	=58	=58	=58	=58	=58	=58	=58	=58	=58
!LO:TX:a:t=adagio	!	!	!	!	!	!LO:TX:a:t=adagio	!	!	!	!	!	!	!	!	!	!	!LO:TX:a:B:t=Adagio
4D;\	.	4f#;/	.	4dd;\	.	4r	.	4rF	.	.	4re	.	1ryy	4dd;\	4ff#;\	1ryy	1ryy
!	!	!LO:TX:a:t=Adagio	!	!LO:TX:a:t=adagio	!	!	!	!	!	!	!	!	!	!LO:TX:a:t=adagio	!LO:TX:a:t=adagio	!	!
4D\	.	4ff#\	.	4aa\	.	4D\	pe-	4A\	Pe-	.	4ff#\	Pec-	.	4dd\	4ff#\	.	.
!	!	!	!	!	!	!	!	!	!	!	!LO:TX:a:t=adagio	!	!	!	!	!	!
4A\	.	4ee\	.	4ccc#\	.	4A\	-ca-	4c#\	-ca-	.	4ee\	-ca-	.	4a/	4ee\	.	.
4AA/	.	4ee\	.	4ccc#\	.	4A\	-tor	4c#\	-tor	.	4ee\	-tor	.	4a/	4ee\	.	.
!	!	!	!	!	!	!LO:LB:g=original	!	!	!	!	!LO:LB:g=original	!	!	!	!	!	!
=59	=59	=59	=59	=59	=59	=59	=59	=59	=59	=59	=59	=59	=59	=59	=59	=59	=59
4r	.	4r	.	4r	.	4r	.	4r	.	.	4r	.	1ryy	4r	4r	1ryy	1ryy
4A\	.	4ee\	.	4gg\	.	4A\	vi-	4e\	vi-	.	4gg\	vi-	.	4ee\	4gg\	.	.
4d\	.	4dd\	.	4ff#\	.	4d\	-de-	4d\	-de-	.	4ff#\	-de-	.	4dd\	4ff#\	.	.
!	!	!	!	!	!	!LO:N:vis=8	!	!LO:N:vis=8	!	!	!	!	!	!	!	!	!
4D/	.	4dd\	.	4ff#\	.	4D\	-bit	4d\	-bit	.	4ff#\	-bit	.	4dd\	4ff#\	.	.
!LO:LB:g=original	!	!	!	!	!	!	!	!LO:LB:g=original	!	!	!	!	!	!	!	!	!
=60	=60	=60	=60	=60	=60	=60	=60	=60	=60	=60	=60	=60	=60	=60	=60	=60	=60
16.D\LL	.	16.a\LL	.	16.ff#\LL	.	4D\	et	4A\	Et	.	4ff#\	et	1ryy	16.dd\LL	16.ff#\LL	1ryy	1ryy
32D\K	.	32a\K	.	32ddd\K	.	.	.	.	.	.	.	.	.	32dd\K	32ff#\K	.	.
16.D\	.	16.a\	.	16.ddd\	.	.	.	.	.	.	.	.	.	16.dd\	16.ff#\	.	.
32D\JJk	.	32a\JJk	.	32ddd\JJk	.	.	.	.	.	.	.	.	.	32dd\JJk	32ff#\JJk	.	.
16.D\LL	.	16.a\LL	.	16.ddd\LL	.	8D\	i-	8A\	i-	.	8ff#\	i-	.	16.dd\LL	16.ff#\LL	.	.
32D\K	.	32a\K	.	32ddd\K	.	.	.	.	.	.	.	.	.	32dd\K	32ff#\K	.	.
16.D\	.	16.a\	.	16.ddd\	.	8D\	-ras-	8A\	-ras-	.	8ff#\	-ras-	.	16.dd\	16.ff#\	.	.
32D\JJk	.	32a\JJk	.	32ddd\JJk	.	.	.	.	.	.	.	.	.	32dd\JJk	32ff#\JJk	.	.
!	!	!	!	!	!	!	!	!	!	!	!	!	!	!LO:LB:g=original	!	!	!
4A\	.	4cc#\	.	4ccc#\	.	4A\	.	4c#\	-ce-	.	4ee\	-ce-	.	4a/	4ee\	.	.
4AA/	.	4cc#\	.	4ccc#\	.	4A\	-cet	4c#\	-tur	.	4ee\	-tur	.	4a/	4ee\	.	.
=61	=61	=61	=61	=61	=61	=61	=61	=61	=61	=61	=61	=61	=61	=61	=61	=61	=61
2r	.	2r	.	2r	.	2r	.	8c#\	den-	.	8ee\	den-	1ryy	2r	2r	1ryy	1ryy
.	.	.	.	.	.	.	.	16c#\	-ti-	.	16ee\	-ti-	.	.	.	.	.
.	.	.	.	.	.	.	.	16c#\	-bus	.	16ee\	-bus	.	.	.	.	.
.	.	.	.	.	.	.	.	8c#\	su-	.	8ee\	su-	.	.	.	.	.
.	.	.	.	.	.	.	.	8c#\	-is	.	8ee\	-is	.	.	.	.	.
16.F#\LL	.	16.ee\LL	.	16.ccc#\LL	.	4F#\	fre-	4c#\	fre-	.	4ee\	fre-	.	16.f#/LL	16.f#/LL	.	.
32F#\K	.	32ee\K	.	32ccc#\K	.	.	.	.	.	.	.	.	.	32f#/K	32f#/K	.	.
16.F#\	.	16.ee\	.	16.ccc#\	.	.	.	.	.	.	.	.	.	16.f#/	16.f#/	.	.
32F#\JJk	.	32ee\JJk	.	32ccc#\JJk	.	.	.	.	.	.	.	.	.	32f#/JJk	32f#/JJk	.	.
4F#\	.	4ee\	.	4ccc#\	.	4F#\	-met	4c#\	-met	.	4dd\	-met	.	4f#/	4f#/	.	.
=62	=62	=62	=62	=62	=62	=62	=62	=62	=62	=62	=62	=62	=62	=62	=62	=62	=62
16.F#\LL	.	16.ee\LL	.	16.ccc#\LL	.	8F#\	fre-	8c#\	fre-	.	8ee\	fre-	1ryy	8f#/L	8f#/L	1ryy	1ryy
32F#\K	.	32ee\K	.	32ccc#\K	.	.	.	.	.	.	.	.	.	.	.	.	.
16.F#\	.	16.ee\	.	16.ccc#\	.	8F#\	-met	8c#\	-met	.	8ee\	-met	.	16f#/L	16f#/L	.	.
.	.	.	.	.	.	.	.	.	.	.	.	.	.	16f#/JJ	16f#/JJ	.	.
32F#\JJk	.	32ee\JJk	.	32ccc#\JJk	.	.	.	.	.	.	.	.	.	.	.	.	.
16.F#\LL	.	16.ee\LL	.	16.ccc#\LL	.	8F#\	et	8c#\	et	.	8ee\	et	.	8f#/L	8f#/L	.	.
32F#\K	.	32ee\K	.	32ccc#\K	.	.	.	.	.	.	.	.	.	.	.	.	.
16.F#\	.	16.ee\	.	16.ccc#\	.	8F#\	ta-	8c#\	ta-	.	8ee\	ta-	.	8f#/J	8f#/J	.	.
32F#\JJk	.	32ee\JJk	.	32ccc#\JJk	.	.	.	.	.	.	.	.	.	.	.	.	.
!	!	!	!	!LO:LB:g=original	!	!	!	!	!	!	!	!	!	!	!	!	!
16.BB/LL	.	16.dd\LL	.	16.bb\LL	.	4B\	-bes-	4B\	-bes-	.	4dd\	-bes-	.	8f#/L	8f#/L	.	.
!	!	!	!	!	!	!	!	!	!	!	!LO:LB:g=original	!	!	!	!	!	!
32BB/K	.	32dd\K	.	32ff#\K	.	.	.	.	.	.	.	.	.	.	.	.	.
16.BB/	.	16.dd\	.	16.ff#\	.	.	.	.	.	.	.	.	.	16f#/L	16f#/L	.	.
.	.	.	.	.	.	.	.	.	.	.	.	.	.	16f#/JJ	16f#/JJ	.	.
32BB/JJk	.	32dd\JJk	.	32ff#\JJk	.	.	.	.	.	.	.	.	.	.	.	.	.
4BB/	.	4dd\	.	4ff#\	.	4BB/	-cet	4F#/	-cet	.	4dd\	-cet	.	4f#/	4f#/	.	.
=63	=63	=63	=63	=63	=63	=63	=63	=63	=63	=63	=63	=63	=63	=63	=63	=63	=63
16.E\LL	.	16.dd\LL	.	16.bb\LL	.	4E\	de-	4B\	de-	.	4dd\	de-	1ryy	8ee\L	8ee\L	1ryy	1ryy
32E\K	.	32dd\K	.	32bb\K	.	.	.	.	.	.	.	.	.	.	.	.	.
16.E\	.	16.dd\	.	16.bb\	.	.	.	.	.	.	.	.	.	16ee\L	16ee\L	.	.
.	.	.	.	.	.	.	.	.	.	.	.	.	.	16ee\JJ	16ee\JJ	.	.
32E\JJk	.	32dd\JJk	.	32bb\JJk	.	.	.	.	.	.	.	.	.	.	.	.	.
16.E\LL	.	16.dd\LL	.	16.bb\LL	.	4E\	-si-	4B\	-si-	.	4dd\	-si-	.	8ee\L	8ee\L	.	.
32E\K	.	32dd\K	.	32bb\K	.	.	.	.	.	.	.	.	.	.	.	.	.
16.E\	.	16.dd\	.	16.bb\	.	.	.	.	.	.	.	.	.	8ee\J	8ee\J	.	.
32E\JJk	.	32dd\JJk	.	32bb\JJk	.	.	.	.	.	.	.	.	.	.	.	.	.
!	!	!LO:LB:g=original	!	!	!	!	!	!	!	!	!	!	!	!	!	!	!
16.AA/LL	.	16.cc#\LL	.	16.aa\LL	.	8.A\	-de-	8.A\	-de-	.	8.cc#\	-de-	.	8ee\L	8ee\L	.	.
32AA/K	.	32cc#\K	.	32ee\K	.	.	.	.	.	.	.	.	.	.	.	.	.
16.AA/	.	16.cc#\	.	16.ee\	.	.	.	.	.	.	.	.	.	16ee\L	16ee\L	.	.
.	.	.	.	.	.	16AA/	-ri-	16E/	-ri-	.	16cc#\	-ri-	.	16ee\JJ	16ee\JJ	.	.
32AA/JJk	.	32cc#\JJk	.	32ee\JJk	.	.	.	.	.	.	.	.	.	.	.	.	.
4AA/	.	4cc#\	.	4ee\	.	4AA/	-um	4E/	-um	.	4cc#\	-um	.	4ee\	4ee\	.	.
!	!	!	!	!	!	!LO:LB:g=original	!	!LO:LB:g=original	!	!	!	!	!	!	!LO:LB:g=original	!	!
=64	=64	=64	=64	=64	=64	=64	=64	=64	=64	=64	=64	=64	=64	=64	=64	=64	=64
!LO:TX:a:t=P:problem=mixed beam	!	!	!	!	!	!	!	!	!	!	!	!	!	!	!	!	!
16.A\LL	.	4cc#\	.	4ee\	.	4A\	pec-	4c#\	Pec-	.	4ee\	pec-	1ryy	4a/	4ee\	1ryy	1ryy
32AA/K	.	.	.	.	.	.	.	.	.	.	.	.	.	.	.	.	.
16.AA/	.	.	.	.	.	.	.	.	.	.	.	.	.	.	.	.	.
32AA/JJk	.	.	.	.	.	.	.	.	.	.	.	.	.	.	.	.	.
!LO:TX:a:t=P:problem=mixed beam	!	!	!	!	!	!	!	!	!	!	!	!	!	!	!	!	!
16.A\LL	.	4dd\	.	4ff#\	.	4A\	-ca-	4d\	-ca-	.	4ff#\	-ca-	.	4dd\	4ff#\	.	.
32AA/K	.	.	.	.	.	.	.	.	.	.	.	.	.	.	.	.	.
16.AA/	.	.	.	.	.	.	.	.	.	.	.	.	.	.	.	.	.
32AA/JJk	.	.	.	.	.	.	.	.	.	.	.	.	.	.	.	.	.
!LO:TX:a:t=P:problem=mixed beam	!	!	!	!	!	!	!	!	!	!	!	!	!	!	!	!	!
16.A\LL	.	4ee\	.	4gg\	.	4A\	-to-	4e\	-to-	.	4gg\	-to-	.	4ee\	4gg\	.	.
32AA/K	.	.	.	.	.	.	.	.	.	.	.	.	.	.	.	.	.
16.AA/	.	.	.	.	.	.	.	.	.	.	.	.	.	.	.	.	.
32AA/JJk	.	.	.	.	.	.	.	.	.	.	.	.	.	.	.	.	.
8D\L	.	8dd\L	.	16.ff#\LL	.	8D\	-rum	8d\	-rum	.	8ff#\	-rum	.	8dd\L	8ff#\L	.	.
.	.	.	.	32aa\K	.	.	.	.	.	.	.	.	.	.	.	.	.
16F#\L	.	16a\L	.	16.ddd\	.	16F#\LL	pe-	16A\LL	pe-	.	8ff#\	pe-	.	16dd\L	16ff#\L	.	.
16G\JJ	.	16b\JJ	.	.	.	16G\JJ	.	16B\JJ	.	.	.	.	.	16ee\JJ	16gg\JJ	.	.
.	.	.	.	32dd\JJk	.	.	.	.	.	.	.	.	.	.	.	.	.
=65	=65	=65	=65	=65	=65	=65	=65	=65	=65	=65	=65	=65	=65	=65	=65	=65	=65
4A\	.	4f#/	.	4a/	.	4A\	-ri-	4d\	-ri-	.	4ff#\	-ri-	1ryy	4dd\	4ff#\	1ryy	1ryy
4AA/	.	4g/	.	4ee\	.	4AA/	.	4c#\	-bit	.	4ee\	.	.	4a/	4eeT\	.	.
!	!	!	!	!LO:TX:a:t=P:problem=mixed beam	!	!	!	!	!	!	!	!	!	!	!	!	!
16.D\LL	.	16.f#/LL	.	16.dd\LL	.	4D\	-bit	4d\	.	.	4dd\	-bit	.	8f#/L	8dd\L	.	.
32D\K	.	32d/K	.	32f#/K	.	.	.	.	.	.	.	.	.	.	.	.	.
16.D\	.	16.d/	.	16.f#/	.	.	.	.	.	.	.	.	.	16f#/L	8dd\	.	.
.	.	.	.	.	.	.	.	.	.	.	.	.	.	16f#/JJ	.	.	.
32D\JJk	.	32d/JJk	.	32f#/JJk	.	.	.	.	.	.	.	.	.	.	.	.	.
!	!	!	!	!	!	!	!	!	!	!	!LO:TX:a:t=All(egr)o	!	!	!	!	!	!
4D;\	.	4d;/	.	4f#;/	.	4r	.	4r	.	.	4r	.	.	4f#;/	8dd\	.	.
.	.	.	.	.	.	.	.	.	.	.	.	.	.	.	8dd\J	.	.
=66	=66	=66	=66	=66	=66	=66	=66	=66	=66	=66	=66	=66	=66	=66	=66	=66	=66
!LO:TX:a:t=All(egr)o	!	!	!	!LO:TX:a:t=All(egr)o	!	!	!	!LO:TX:a:t=All(egr)o	!	!	!	!	!	!	!LO:TX:a:t=All(egr)o	!	!LO:TX:a:B:t=Allegro
4d\	.	00r	.	00r	.	00r	.	00r	.	.	4ff#\	Glo-	1ryy	00r	00r	1ryy	1ryy
4A\	.	.	.	.	.	.	.	.	.	.	16aa\LL	.	.	.	.	.	.
.	.	.	.	.	.	.	.	.	.	.	16gg\	.	.	.	.	.	.
.	.	.	.	.	.	.	.	.	.	.	16ff#\	.	.	.	.	.	.
.	.	.	.	.	.	.	.	.	.	.	16ee\JJ	.	.	.	.	.	.
8B\L	.	.	.	.	.	.	.	.	.	.	4dd\	-ria	.	.	.	.	.
16A\L	.	.	.	.	.	.	.	.	.	.	.	.	.	.	.	.	.
16G\JJ	.	.	.	.	.	.	.	.	.	.	.	.	.	.	.	.	.
8F#\L	.	.	.	.	.	.	.	.	.	.	8r	.	.	.	.	.	.
8F#\J	.	.	.	.	.	.	.	.	.	.	8a\	pa-	.	.	.	.	.
!LO:LB:g=original	!	!	!	!	!	!	!	!	!	!	!	!	!	!	!	!	!
=67	=67	=67	=67	=67	=67	=67	=67	=67	=67	=67	=67	=67	=67	=67	=67	=67	=67
8E\L	.	.	.	.	.	.	.	.	.	.	8gg\	-tri	1ryy	.	.	1ryy	1ryy
8D\	.	.	.	.	.	.	.	.	.	.	8gg\	et	.	.	.	.	.
8C#\	.	.	.	.	.	.	.	.	.	.	8gg\	fi-	.	.	.	.	.
8AA\J	.	.	.	.	.	.	.	.	.	.	8gg\	-li-	.	.	.	.	.
4D\	.	.	.	.	.	.	.	.	.	.	4gg\	-o	.	.	.	.	.
!	!	!	!	!	!	!	!	!	!	!	!LO:LB:g=original	!	!	!	!	!	!
8D\L	.	.	.	.	.	.	.	.	.	.	8aa\	Et	.	.	.	.	.
8F#\J	.	.	.	.	.	.	.	.	.	.	8ccn\	spi-	.	.	.	.	.
=68	=68	=68	=68	=68	=68	=68	=68	=68	=68	=68	=68	=68	=68	=68	=68	=68	=68
!LO:TX:a:t=P:problem=mixed beam	!	!	!	!	!	!	!	!	!	!	!	!	!	!	!	!	!
8G\L	.	.	.	.	.	.	.	.	.	.	4b\	-ri-	1ryy	.	.	1ryy	1ryy
8GG/J	.	.	.	.	.	.	.	.	.	.	.	.	.	.	.	.	.
8r	.	.	.	.	.	.	.	.	.	.	8ee\	-tu-	.	.	.	.	.
8G#X\	.	.	.	.	.	.	.	.	.	.	8dd\	-i	.	.	.	.	.
!LO:TX:a:t=P:problem=mixed beam	!	!	!	!	!	!	!	!	!	!	!	!	!	!	!	!	!
8A\L	.	.	.	.	.	.	.	.	.	.	8cc#\	san-	.	.	.	.	.
8AA/	.	.	.	.	.	.	.	.	.	.	8cc#\	-cto	.	.	.	.	.
8AA/	.	.	.	.	.	.	.	.	.	.	8gg\	et	.	.	.	.	.
8C#/J	.	.	.	.	.	.	.	.	.	.	8ee\	spi-	.	.	.	.	.
=69	=69	=69	=69	=69	=69	=69	=69	=69	=69	=69	=69	=69	=69	=69	=69	=69	=69
!LO:TX:a:t=P:problem=mixed beam	!	!	!	!	!	!	!	!	!	!	!	!	!	!	!	!	!
8D\L	.	.	.	.	.	.	.	.	.	.	16ff#\LL	-ri-	1ryy	.	.	1ryy	1ryy
.	.	.	.	.	.	.	.	.	.	.	16dd\JJ	.	.	.	.	.	.
8G\	.	.	.	.	.	.	.	.	.	.	16ee\	-tu-	.	.	.	.	.
.	.	.	.	.	.	.	.	.	.	.	16b\	-i	.	.	.	.	.
8A\	.	.	.	.	.	.	.	.	.	.	4cc#\	san-	.	.	.	.	.
8AA/J	.	.	.	.	.	.	.	.	.	.	.	.	.	.	.	.	.
8D/L	.	.	.	.	.	.	.	.	.	.	4dd\	-cto	.	.	.	.	.
8AA/J	.	.	.	.	.	.	.	.	.	.	.	.	.	.	.	.	.
4D\	.	.	.	.	.	.	.	.	.	.	4r	.	.	.	.	.	.
=70	=70	=70	=70	=70	=70	=70	=70	=70	=70	=70	=70	=70	=70	=70	=70	=70	=70
!	!	!LO:TX:a:t=All(egr)o	!	!	!	!	!	!	!	!	!	!	!	!LO:TX:a:t=All(egr)o	!	!	!
4d\	.	4ff# 4a 4d/	.	4ff# 4a 4d/	.	8d\	Si-	8A\	Si-	.	8ff#\	Si-	1ryy	4dd\	4ff#\	1ryy	1ryy
.	.	.	.	.	.	8d\	-cut	8A\	-cut	.	8ff#\	-cut	.	.	.	.	.
4A\	.	16aa\LL	.	16aa\LL	.	4A\	e-	4c#\	e-	.	4ee\	e-	.	4a/	4ee\	.	.
.	.	16gg\	.	(16gg\	.	.	.	.	.	.	.	.	.	.	.	.	.
.	.	16ff#\	.	16ff#)\	.	.	.	.	.	.	.	.	.	.	.	.	.
.	.	16ee\JJ	.	16ee\JJ	.	.	.	.	.	.	.	.	.	.	.	.	.
.	.	8qqee/	.	8qqee/	.	.	.	.	.	.	.	.	.	.	.	.	.
8B\L	.	4dd\	.	4dd\	.	4B\	-rat	4d\	-rat	.	4ff#\	-rat	.	4dd\	4ff#\	.	.
16A\L	.	.	.	.	.	.	.	.	.	.	.	.	.	.	.	.	.
16G\JJ	.	.	.	.	.	.	.	.	.	.	.	.	.	.	.	.	.
!	!	!	!	!	!	!	!	!LO:N:vis=4.	!	!	!	!	!	!	!	!	!
8F#\L	.	8r	.	8r	.	4r	.	4r	.	.	4r	.	.	8r	8r	.	.
8F#\J	.	8a/	.	8a/	.	.	.	.	.	.	.	.	.	8dd\	8ff#\	.	.
=71	=71	=71	=71	=71	=71	=71	=71	=71	=71	=71	=71	=71	=71	=71	=71	=71	=71
!	!	!	!	!	!	!	!	!	!	!	!	!	!	!LO:TX:a:t=P:problem=mixed beam	!	!	!
8E\L	.	8cc#\L	.	8gg\L	.	8E\	in	8c#\	in	.	8gg\	in	1ryy	8a/L	8ee\L	1ryy	1ryy
8D\	.	8ee\	.	8gg\	.	8D\	prin-	8e\	prin-	.	8gg\	prin-	.	8ee\	8gg\	.	.
8C#\	.	8ee\	.	8gg\	.	8C#/	-ci-	8e\	-ci-	.	8gg\	-ci-	.	8ee\	8gg\	.	.
8AA\J	.	8ee\J	.	8gg\J	.	8AA/	-pi-	8e\	-pi-	.	8gg\	-pi-	.	8ee\J	8gg\J	.	.
4D\	.	4a/	.	4ff#\	.	8D\	-o	8d\	-o	.	8ff#\	-o	.	4dd\	4ff#\	.	.
!	!	!	!	!	!	!	!	!	!	!	!LO:PB:g=original	!	!	!	!	!	!
.	.	.	.	.	.	8D\	et	8d\	et	.	8ff#\	et	.	.	.	.	.
8D\L	.	8f#/L	.	8aa\L	.	8D\L	nunc	8d\	nunc	.	8aa\	nunc	.	8r	8r	.	.
8F#\J	.	8a/J	.	8ccn\J	.	8F#\J	.	8d\	et-	.	8ccn\	et-	.	16dd\LL	16dd\LL	.	.
.	.	.	.	.	.	.	.	.	.	.	.	.	.	16dd\JJ	16dd\JJ	.	.
=72	=72	=72	=72	=72	=72	=72	=72	=72	=72	=72	=72	=72	=72	=72	=72	=72	=72
8G\L	.	8d/L	.	8b\L	.	8G\	et-	8d\	sem-	.	8b\	sem-	1ryy	4dd\	4dd\	1ryy	1ryy
8G\	.	8d/	.	8b\J	.	8G\	-sem-	8d\	-per	.	8b\	-per	.	.	.	.	.
8E\	.	8g/	.	(32ee\LLL	.	8E\	-per	8B\	et	.	8ee\	et	.	8r	8r	.	.
!	!	!	!	!LO:LB:g=original	!	!	!	!	!	!	!	!	!	!	!	!	!
.	.	.	.	32ff#\	.	.	.	.	.	.	.	.	.	.	.	.	.
.	.	.	.	32gg\	.	.	.	.	.	.	.	.	.	.	.	.	.
.	.	.	.	32aa\JJJ)	.	.	.	.	.	.	.	.	.	.	.	.	.
8G\J	.	8f#/J	.	16bb\LL	.	8G\	et	8B\	in	.	8dd\	in	.	16ee\LL	16ee\LL	.	.
!	!	!	!	!	!	!	!	!LO:LB:g=original	!	!	!	!	!	!	!	!	!
.	.	.	.	16dd\JJ	.	.	.	.	.	.	.	.	.	16ee\JJ	16ee\JJ	.	.
!LO:TX:a:t=P:problem=mixed beam	!	!	!	!LO:LB:g=original	!	!	!	!	!	!	!	!	!	!	!	!	!
8A\L	.	8e/L	.	8cc#\L	.	8A\	in	8E/	sae-	.	8cc#X\	sae-	.	8ee\L	8ee\L	.	.
8AA/	.	8e/J	.	8cc#\J	.	16A\	sae-	16E/	-cu-	.	16cc#\	-cu-	.	8ee\J	8ee\J	.	.
.	.	.	.	.	.	16A\	-culo-	16E/	-la	.	16cc#\	-la	.	.	.	.	.
!	!	!	!	!	!	!	!	!	!	!	!	!	!	!	!LO:TX:t=P:problem=znaki ostatniej miary taktu zamazane	!	!
8AA/	.	16c#/LL	.	16a\LL	.	8A\	-rum	8E/	sae-	.	8cc#\	sae-	.	4r	4r	.	.
.	.	16e/J	.	16cc#\J	.	.	.	.	.	.	.	.	.	.	.	.	.
8AA/J	.	8eT/J	.	8cc#m\J	.	8A\	sae-	8E/	-cu-	.	8cc#\	-cu-	.	.	.	.	.
!	!	!	!	!	!	!	!	!	!	!	!	!	!	!LO:LB:g=original	!	!	!
=73	=73	=73	=73	=73	=73	=73	=73	=73	=73	=73	=73	=73	=73	=73	=73	=73	=73
!	!	!	!	!	!	!	!	!	!	!	!	!	!	!LO:TX:a:t=P:problem=mixed beam	!	!	!
8AA/L	.	(16g/LL	.	16ee\LL	.	8A\	-cu-	16G/LL	-lo-	.	16ee\LL	-lo-	1ryy	8a/L	8ee\L	1ryy	1ryy
.	.	16e/J)	.	16cc#\J	.	.	.	16E/JJ	.	.	16cc#\JJ	.	.	.	.	.	.
8AA/	.	8f#/J	.	8dd\J	.	8A\	-lo-	8F#/	-rum	.	8dd\	-rum	.	8dd\J	8dd\J	.	.
8AA/	.	8f#/L	.	16a\LL	.	4A\	-rum	4F#/	a-	.	4dd\	a-	.	4r	4r	.	.
.	.	.	.	16dd\J	.	.	.	.	.	.	.	.	.	.	.	.	.
8AA/J	.	8f#/J	.	8ddM\J	.	.	.	.	.	.	.	.	.	.	.	.	.
!	!	!	!	!	!	!	!	!	!	!	!	!	!	!LO:TX:a:t=P:problem=mixed beam	!	!	!
8AA/L	.	(16dd\LL	.	16ff#\LL	.	2A\	a-	16d\LL	.	.	16ff#\LL	.	.	8dd\L	8ff#\L	.	.
.	.	16b\J)	.	16dd\J	.	.	.	16B\JJ	.	.	16dd\JJ	.	.	.	.	.	.
8AA/	.	8cc#\J	.	8eeM\J	.	.	.	8c#\	-men	.	8ee\	-men	.	8a/J	8ee\J	.	.
!	!	!LO:TX:a:t=P:problem=mixed beam	!	!	!	!	!	!	!	!	!	!	!	!	!	!	!
8AA/	.	(16e/LL	.	16a\LL	.	.	.	4c#\	a-	.	4ee\	a-	.	4r	4r	.	.
.	.	16cc#\J)	.	16ee\J	.	.	.	.	.	.	.	.	.	.	.	.	.
8AA/J	.	8cc#t\J	.	8eeM\J	.	.	.	.	.	.	.	.	.	.	.	.	.
=74	=74	=74	=74	=74	=74	=74	=74	=74	=74	=74	=74	=74	=74	=74	=74	=74	=74
8AA/L	.	16ee\LL	.	16gg\LL	.	8A\	-men	16e\LL	.	.	16gg\LL	-men	1ryy	8ee\L	8gg\L	1ryy	1ryy
.	.	16cc#\J	.	16ee\J	.	.	.	16c#\JJ	.	.	16ee\JJ	.	.	.	.	.	.
8D/J	.	8dd\J	.	8ff#\J	.	8D\	a-	8d\	-men	.	8ff#\	.	.	8dd\J	8ff#\J	.	.
8A\L	.	4ee\	.	8.ccc#\L	.	8A\L	.	4c#\	a-	.	4ee\	a-	.	8a/L	8ee\L	.	.
8G\J	.	.	.	.	.	8G\J	.	.	.	.	.	.	.	16a/L	16ee\L	.	.
.	.	.	.	32bb\LL	.	.	.	.	.	.	.	.	.	16a/JJ	16ee\JJ	.	.
.	.	.	.	32ccc#\JJJ	.	.	.	.	.	.	.	.	.	.	.	.	.
!LO:TX:a:t=P:problem=mixed beam	!	!	!	!	!	!	!	!	!	!	!	!	!	!	!	!	!
8F#\L	.	8ff#\L	.	8ddd\L	.	8F#\	.	8d\	-men	.	8ff#\	.	.	8dd\L	8ff#\L	.	.
8G\	.	8ee\	.	8gg\	.	8G\	-men	8e\	.	.	8gg\	-men	.	8ee\J	8gg\	.	.
!	!	!	!	!	!	!LO:TX:a:t=P:problem=mixed beam	!	!	!	!	!	!	!	!	!	!	!
8A\	.	8dd\	.	8ff#\	.	8A\L	a-	8d\L	a-	.	8ff#\L	.	.	8dd\L	8ff#\	.	.
8AA/J	.	8cc#\J	.	8ee\J	.	8AA/J	.	8c#\J	.	.	8ee\J	a-	.	8a\J	8ee\J	.	.
!	!	!	!	!	!	!	!	!	!	!	!	!	!	!	!LO:LB:g=original	!	!
=75	=75	=75	=75	=75	=75	=75	=75	=75	=75	=75	=75	=75	=75	=75	=75	=75	=75
4D\	.	4dd\	.	4dd\	.	4D\	-men	4d\	-men	.	4dd\	-men	1ryy	4f#/	4dd\	1ryy	1ryy
4A\	.	4ee\	.	4ccc#\	.	4A\	a-	4c#\	a-	.	4ee\	a-	.	4a/	4ee\	.	.
4D\	.	4ff#\	.	4ddd\	.	4d\	-men	4d\	-men	.	4ff#\	-men	.	4dd\	4ff#\	.	.
4r	.	4r	.	4r	.	4r	.	4r	.	.	4r	.	.	4r	4r	.	.
==	==	==	==	==	==	==	==	==	==	==	==	==	==	==	==	==	==
*-	*-	*-	*-	*-	*-	*-	*-	*-	*-	*-	*-	*-	*-	*-	*-	*-	*-
!!!system-decoration: s1,s2,s3,s4,s5[(s6,s7,s8)][(s9,s10,s11)]
!!!EED: Antoni Szymański
!!!EEV: 2020-09-30
!!!ENC: Tomasz Grochalski
!!!END: 2020-05-16
!!!YEC: Copyright 2022 Narodowy Instytut Fryderyka Chopina (https://polishscores.org)
!!!YEM: Licence CC BY 4.0 (https://creativecommons.org/licenses/by/4.0)
